; G-Code generated by gcode_gen version 1.0
; Home axes...
G28 ;
; Initializing...
; Moving to center...
G90 ; Absolute position...
G1 X152.5 Y210.0 Z75.0 F3600 
; Starting Path...
G91 ; Relative position...
G1 X-29.15 Y-30.47 Z20.58 F3600 
M18 
G4 P5000 
M17 
G1 X29.15 Y30.47 Z-20.58 F3600 
M18 
G4 P5000 
M17 
G1 X-2.43 Y-2.06 Z4.35 F3600 
M18 
G4 P5000 
M17 
G1 X2.43 Y2.06 Z-4.35 F3600 
M18 
G4 P5000 
M17 
G1 X-30.83 Y-6.59 Z6.36 F3600 
M18 
G4 P5000 
M17 
G1 X30.83 Y6.59 Z-6.36 F3600 
M18 
G4 P5000 
M17 
G1 X23.85 Y-26.41 Z8.99 F3600 
M18 
G4 P5000 
M17 
G1 X-23.85 Y26.41 Z-8.99 F3600 
M18 
G4 P5000 
M17 
G1 X-40.41 Y-1.51 Z14.73 F3600 
M18 
G4 P5000 
M17 
G1 X40.41 Y1.51 Z-14.73 F3600 
M18 
G4 P5000 
M17 
G1 X34.63 Y23.63 Z16.7 F3600 
M18 
G4 P5000 
M17 
G1 X-34.63 Y-23.63 Z-16.7 F3600 
M18 
G4 P5000 
M17 
G1 X-7.03 Y35.87 Z1.87 F3600 
M18 
G4 P5000 
M17 
G1 X7.03 Y-35.87 Z-1.87 F3600 
M18 
G4 P5000 
M17 
G1 X-19.43 Y-47.68 Z-1.05 F3600 
M18 
G4 P5000 
M17 
G1 X19.43 Y47.68 Z1.05 F3600 
M18 
G4 P5000 
M17 
G1 X-11.48 Y34.63 Z6.77 F3600 
M18 
G4 P5000 
M17 
G1 X11.48 Y-34.63 Z-6.77 F3600 
M18 
G4 P5000 
M17 
G1 X11.91 Y-25.6 Z-0.47 F3600 
M18 
G4 P5000 
M17 
G1 X-11.91 Y25.6 Z0.47 F3600 
M18 
G4 P5000 
M17 
G1 X-25.14 Y-23.48 Z-6.78 F3600 
M18 
G4 P5000 
M17 
G1 X25.14 Y23.48 Z6.78 F3600 
M18 
G4 P5000 
M17 
G1 X-0.96 Y7.93 Z8.63 F3600 
M18 
G4 P5000 
M17 
G1 X0.96 Y-7.93 Z-8.63 F3600 
M18 
G4 P5000 
M17 
G1 X-16.6 Y19.45 Z2.7 F3600 
M18 
G4 P5000 
M17 
G1 X16.6 Y-19.45 Z-2.7 F3600 
M18 
G4 P5000 
M17 
G1 X8.04 Y28.44 Z-0.9 F3600 
M18 
G4 P5000 
M17 
G1 X-8.04 Y-28.44 Z0.9 F3600 
M18 
G4 P5000 
M17 
G1 X31.94 Y-42.69 Z11.26 F3600 
M18 
G4 P5000 
M17 
G1 X-31.94 Y42.69 Z-11.26 F3600 
M18 
G4 P5000 
M17 
G1 X-46.74 Y2.37 Z-12.0 F3600 
M18 
G4 P5000 
M17 
G1 X46.74 Y-2.37 Z12.0 F3600 
M18 
G4 P5000 
M17 
G1 X19.6 Y-47.18 Z3.39 F3600 
M18 
G4 P5000 
M17 
G1 X-19.6 Y47.18 Z-3.39 F3600 
M18 
G4 P5000 
M17 
G1 X1.96 Y2.35 Z-5.65 F3600 
M18 
G4 P5000 
M17 
G1 X-1.96 Y-2.35 Z5.65 F3600 
M18 
G4 P5000 
M17 
G1 X-26.16 Y22.99 Z2.56 F3600 
M18 
G4 P5000 
M17 
G1 X26.16 Y-22.99 Z-2.56 F3600 
M18 
G4 P5000 
M17 
G1 X9.69 Y35.4 Z0.23 F3600 
M18 
G4 P5000 
M17 
G1 X-9.69 Y-35.4 Z-0.23 F3600 
M18 
G4 P5000 
M17 
