; G-Code generated by gcode_gen version 1.0
; Home axes...
G28 ;
; Initializing...
; Moving to center...
G90 ; Absolute position...
G1 X150 Y150 Z50 F3600 
; Starting Path...
G91 ; Relative position...
G1 X-5.33 Y-21.22 Z-2.06 F3600 
M18 
G4 P5000 
M17 
G1 X22.78 Y-16.12 Z5.47 F3600 
M18 
G4 P5000 
M17 
G1 X-39.7 Y19.95 Z-8.52 F3600 
M18 
G4 P5000 
M17 
G1 X5.55 Y-10.75 Z5.27 F3600 
M18 
G4 P5000 
M17 
G1 X-13.16 Y1.24 Z-6.67 F3600 
M18 
G4 P5000 
M17 
G1 X-1.49 Y25.68 Z0.75 F3600 
M18 
G4 P5000 
M17 
G1 X3.2 Y-32.28 Z-7.29 F3600 
M18 
G4 P5000 
M17 
G1 X-7.97 Y-12.44 Z5.47 F3600 
M18 
G4 P5000 
M17 
G1 X5.6 Y24.9 Z-12.59 F3600 
M18 
G4 P5000 
M17 
G1 X-28.45 Y16.87 Z8.07 F3600 
M18 
G4 P5000 
M17 
G1 X-9.18 Y12.89 Z4.52 F3600 
M18 
G4 P5000 
M17 
G1 X42.87 Y5.08 Z-7.01 F3600 
M18 
G4 P5000 
M17 
G1 X1.41 Y-11.23 Z-8.13 F3600 
M18 
G4 P5000 
M17 
G1 X18.28 Y5.23 Z13.46 F3600 
M18 
G4 P5000 
M17 
G1 X-3.53 Y-28.03 Z-4.54 F3600 
M18 
G4 P5000 
M17 
G1 X26.6 Y-5.39 Z6.39 F3600 
M18 
G4 P5000 
M17 
G1 X-4.88 Y-26.35 Z-4.25 F3600 
M18 
G4 P5000 
M17 
G1 X3.11 Y-38.75 Z-0.07 F3600 
M18 
G4 P5000 
M17 
G1 X-5.13 Y-1.9 Z0.96 F3600 
M18 
G4 P5000 
M17 
G1 X-4.64 Y37.75 Z5.28 F3600 
M18 
G4 P5000 
M17 
