; G-Code generated by gcode_gen version 1.0
; Home axes...
G28 ;
; Initializing...
; Moving to center...
G90 ; Absolute position...
G1 X150 Y150 Z50 F3600 
; Starting Path...
G91 ; Relative position...
G1 X-23.54 Y-6.11 Z-5.46 F3600 
M18 
G4 P5000 
M17 
G1 X23.54 Y6.11 Z5.46 F3600 
M18 
G4 P5000 
M17 
G1 X-37.85 Y33.91 Z11.87 F3600 
M18 
G4 P5000 
M17 
G1 X37.85 Y-33.91 Z-11.87 F3600 
M18 
G4 P5000 
M17 
G1 X4.78 Y35.93 Z-8.59 F3600 
M18 
G4 P5000 
M17 
G1 X-4.78 Y-35.93 Z8.59 F3600 
M18 
G4 P5000 
M17 
G1 X-24.17 Y-15.87 Z0.12 F3600 
M18 
G4 P5000 
M17 
G1 X24.17 Y15.87 Z-0.12 F3600 
M18 
G4 P5000 
M17 
G1 X-6.4 Y11.12 Z-9.19 F3600 
M18 
G4 P5000 
M17 
G1 X6.4 Y-11.12 Z9.19 F3600 
M18 
G4 P5000 
M17 
G1 X1.1 Y-5.53 Z-13.2 F3600 
M18 
G4 P5000 
M17 
G1 X-1.1 Y5.53 Z13.2 F3600 
M18 
G4 P5000 
M17 
G1 X28.71 Y-8.81 Z-1.77 F3600 
M18 
G4 P5000 
M17 
G1 X-28.71 Y8.81 Z1.77 F3600 
M18 
G4 P5000 
M17 
G1 X-16.05 Y11.47 Z8.95 F3600 
M18 
G4 P5000 
M17 
G1 X16.05 Y-11.47 Z-8.95 F3600 
M18 
G4 P5000 
M17 
G1 X-14.82 Y-2.9 Z-3.25 F3600 
M18 
G4 P5000 
M17 
G1 X14.82 Y2.9 Z3.25 F3600 
M18 
G4 P5000 
M17 
G1 X1.48 Y-2.71 Z0.26 F3600 
M18 
G4 P5000 
M17 
G1 X-1.48 Y2.71 Z-0.26 F3600 
M18 
G4 P5000 
M17 
G1 X-28.09 Y11.13 Z1.39 F3600 
M18 
G4 P5000 
M17 
G1 X28.09 Y-11.13 Z-1.39 F3600 
M18 
G4 P5000 
M17 
G1 X-31.51 Y-34.56 Z-9.3 F3600 
M18 
G4 P5000 
M17 
G1 X31.51 Y34.56 Z9.3 F3600 
M18 
G4 P5000 
M17 
G1 X10.18 Y-16.01 Z11.39 F3600 
M18 
G4 P5000 
M17 
G1 X-10.18 Y16.01 Z-11.39 F3600 
M18 
G4 P5000 
M17 
G1 X20.41 Y-28.89 Z-6.64 F3600 
M18 
G4 P5000 
M17 
G1 X-20.41 Y28.89 Z6.64 F3600 
M18 
G4 P5000 
M17 
G1 X12.03 Y20.03 Z-1.23 F3600 
M18 
G4 P5000 
M17 
G1 X-12.03 Y-20.03 Z1.23 F3600 
M18 
G4 P5000 
M17 
G1 X-16.21 Y6.85 Z-2.62 F3600 
M18 
G4 P5000 
M17 
G1 X16.21 Y-6.85 Z2.62 F3600 
M18 
G4 P5000 
M17 
G1 X9.92 Y3.23 Z-7.29 F3600 
M18 
G4 P5000 
M17 
G1 X-9.92 Y-3.23 Z7.29 F3600 
M18 
G4 P5000 
M17 
G1 X16.39 Y23.93 Z2.36 F3600 
M18 
G4 P5000 
M17 
G1 X-16.39 Y-23.93 Z-2.36 F3600 
M18 
G4 P5000 
M17 
G1 X16.19 Y-9.27 Z1.06 F3600 
M18 
G4 P5000 
M17 
G1 X-16.19 Y9.27 Z-1.06 F3600 
M18 
G4 P5000 
M17 
G1 X1.0 Y-1.51 Z0.14 F3600 
M18 
G4 P5000 
M17 
G1 X-1.0 Y1.51 Z-0.14 F3600 
M18 
G4 P5000 
M17 
