; G-Code generated by gcode_gen version 1.0
; Home axes...
G28 ;
; Initializing...
; Moving to center...
G90 ; Absolute position...
G1 X150 Y150 Z75 F3600 
; Starting Path...
G91 ; Relative position...
G1 X-22.82 Y-2.56 Z9.66 F3600 
M18 
G4 P5000 
M17 
G1 X22.82 Y2.56 Z-9.66 F3600 
M18 
G4 P5000 
M17 
G1 X19.37 Y-28.31 Z-12.2 F3600 
M18 
G4 P5000 
M17 
G1 X-19.37 Y28.31 Z12.2 F3600 
M18 
G4 P5000 
M17 
G1 X17.87 Y17.97 Z2.22 F3600 
M18 
G4 P5000 
M17 
G1 X-17.87 Y-17.97 Z-2.22 F3600 
M18 
G4 P5000 
M17 
G1 X-5.65 Y12.94 Z-15.8 F3600 
M18 
G4 P5000 
M17 
G1 X5.65 Y-12.94 Z15.8 F3600 
M18 
G4 P5000 
M17 
G1 X-11.49 Y-12.67 Z1.34 F3600 
M18 
G4 P5000 
M17 
G1 X11.49 Y12.67 Z-1.34 F3600 
M18 
G4 P5000 
M17 
G1 X-6.29 Y-4.47 Z4.76 F3600 
M18 
G4 P5000 
M17 
G1 X6.29 Y4.47 Z-4.76 F3600 
M18 
G4 P5000 
M17 
G1 X-5.72 Y-10.27 Z21.36 F3600 
M18 
G4 P5000 
M17 
G1 X5.72 Y10.27 Z-21.36 F3600 
M18 
G4 P5000 
M17 
G1 X7.11 Y-9.81 Z-1.67 F3600 
M18 
G4 P5000 
M17 
G1 X-7.11 Y9.81 Z1.67 F3600 
M18 
G4 P5000 
M17 
G1 X-37.77 Y-8.93 Z-0.56 F3600 
M18 
G4 P5000 
M17 
G1 X37.77 Y8.93 Z0.56 F3600 
M18 
G4 P5000 
M17 
G1 X6.72 Y-2.03 Z-8.11 F3600 
M18 
G4 P5000 
M17 
G1 X-6.72 Y2.03 Z8.11 F3600 
M18 
G4 P5000 
M17 
G1 X28.42 Y25.31 Z2.39 F3600 
M18 
G4 P5000 
M17 
G1 X-28.42 Y-25.31 Z-2.39 F3600 
M18 
G4 P5000 
M17 
G1 X4.99 Y25.17 Z-19.78 F3600 
M18 
G4 P5000 
M17 
G1 X-4.99 Y-25.17 Z19.78 F3600 
M18 
G4 P5000 
M17 
G1 X-32.07 Y-42.71 Z-9.2 F3600 
M18 
G4 P5000 
M17 
G1 X32.07 Y42.71 Z9.2 F3600 
M18 
G4 P5000 
M17 
G1 X1.52 Y-3.59 Z1.22 F3600 
M18 
G4 P5000 
M17 
G1 X-1.52 Y3.59 Z-1.22 F3600 
M18 
G4 P5000 
M17 
G1 X34.17 Y-12.88 Z-12.42 F3600 
M18 
G4 P5000 
M17 
G1 X-34.17 Y12.88 Z12.42 F3600 
M18 
G4 P5000 
M17 
G1 X18.65 Y5.59 Z6.64 F3600 
M18 
G4 P5000 
M17 
G1 X-18.65 Y-5.59 Z-6.64 F3600 
M18 
G4 P5000 
M17 
G1 X5.89 Y13.3 Z-7.17 F3600 
M18 
G4 P5000 
M17 
G1 X-5.89 Y-13.3 Z7.17 F3600 
M18 
G4 P5000 
M17 
G1 X-9.98 Y1.64 Z-3.86 F3600 
M18 
G4 P5000 
M17 
G1 X9.98 Y-1.64 Z3.86 F3600 
M18 
G4 P5000 
M17 
G1 X5.35 Y-10.99 Z-6.1 F3600 
M18 
G4 P5000 
M17 
G1 X-5.35 Y10.99 Z6.1 F3600 
M18 
G4 P5000 
M17 
G1 X10.18 Y-28.33 Z-4.07 F3600 
M18 
G4 P5000 
M17 
G1 X-10.18 Y28.33 Z4.07 F3600 
M18 
G4 P5000 
M17 
