; G-Code generated by gcode_gen version 1.0
; Home axes...
G28 ;
; Initializing...
;  Applying Z Offset...
G91 ; Relative position...
G1 Z50 ; Add Z Offset to avoid electronics...
; Starting Path...
G90 ; Absolute position...
G1 X50.0 Y0.0 Z0.0
G1 X49.96 Y2.0 Z0.04
G1 X49.84 Y4.0 Z0.08
G1 X49.64 Y5.99 Z0.12
G1 X49.36 Y7.97 Z0.16
G1 X49.0 Y9.94 Z0.2
G1 X48.57 Y11.89 Z0.24
G1 X48.05 Y13.82 Z0.28
G1 X47.46 Y15.73 Z0.32
G1 X46.79 Y17.62 Z0.36
G1 X46.05 Y19.47 Z0.4
G1 X45.24 Y21.3 Z0.44
G1 X44.35 Y23.09 Z0.48
G1 X43.39 Y24.85 Z0.52
G1 X42.36 Y26.56 Z0.56
G1 X41.26 Y28.24 Z0.6
G1 X40.1 Y29.86 Z0.64
G1 X38.87 Y31.44 Z0.68
G1 X37.59 Y32.97 Z0.72
G1 X36.24 Y34.45 Z0.76
G1 X34.83 Y35.87 Z0.8
G1 X33.37 Y37.24 Z0.84
G1 X31.85 Y38.54 Z0.88
G1 X30.28 Y39.79 Z0.92
G1 X28.67 Y40.97 Z0.96
G1 X27.01 Y42.08 Z1.0
G1 X25.3 Y43.13 Z1.04
G1 X23.56 Y44.1 Z1.08
G1 X21.77 Y45.01 Z1.12
G1 X19.96 Y45.84 Z1.16
G1 X18.11 Y46.61 Z1.2
G1 X16.23 Y47.29 Z1.24
G1 X14.32 Y47.9 Z1.28
G1 X12.4 Y48.44 Z1.32
G1 X10.45 Y48.9 Z1.36
G1 X8.48 Y49.27 Z1.4
G1 X6.51 Y49.57 Z1.44
G1 X4.52 Y49.8 Z1.48
G1 X2.52 Y49.94 Z1.52
G1 X0.52 Y50.0 Z1.56
G1 X-1.48 Y49.98 Z1.6
G1 X-3.47 Y49.88 Z1.64
G1 X-5.47 Y49.7 Z1.68
G1 X-7.45 Y49.44 Z1.72
G1 X-9.42 Y49.1 Z1.76
G1 X-11.38 Y48.69 Z1.8
G1 X-13.32 Y48.19 Z1.84
G1 X-15.23 Y47.62 Z1.88
G1 X-17.13 Y46.98 Z1.92
G1 X-18.99 Y46.25 Z1.96
G1 X-20.83 Y45.46 Z2.0
G1 X-22.63 Y44.59 Z2.04
G1 X-24.39 Y43.65 Z2.08
G1 X-26.12 Y42.64 Z2.12
G1 X-27.8 Y41.56 Z2.16
G1 X-29.44 Y40.41 Z2.2
G1 X-31.04 Y39.2 Z2.24
G1 X-32.58 Y37.93 Z2.28
G1 X-34.07 Y36.6 Z2.32
G1 X-35.51 Y35.2 Z2.36
G1 X-36.89 Y33.76 Z2.4
G1 X-38.21 Y32.25 Z2.44
G1 X-39.47 Y30.7 Z2.48
G1 X-40.66 Y29.1 Z2.52
G1 X-41.79 Y27.45 Z2.56
G1 X-42.86 Y25.75 Z2.6
G1 X-43.85 Y24.02 Z2.64
G1 X-44.78 Y22.24 Z2.68
G1 X-45.63 Y20.44 Z2.72
G1 X-46.41 Y18.59 Z2.76
G1 X-47.12 Y16.72 Z2.8
G1 X-47.75 Y14.82 Z2.84
G1 X-48.31 Y12.9 Z2.88
G1 X-48.78 Y10.96 Z2.92
G1 X-49.18 Y9.0 Z2.96
G1 X-49.5 Y7.03 Z3.0
G1 X-49.75 Y5.04 Z3.04
G1 X-49.91 Y3.05 Z3.08
G1 X-49.99 Y1.05 Z3.12
G1 X-49.99 Y-0.95 Z3.16
G1 X-49.91 Y-2.95 Z3.2
G1 X-49.75 Y-4.94 Z3.24
G1 X-49.52 Y-6.93 Z3.28
G1 X-49.2 Y-8.91 Z3.32
G1 X-48.8 Y-10.87 Z3.36
G1 X-48.33 Y-12.81 Z3.4
G1 X-47.78 Y-14.73 Z3.44
G1 X-47.15 Y-16.63 Z3.48
G1 X-46.45 Y-18.5 Z3.52
G1 X-45.67 Y-20.35 Z3.56
G1 X-44.82 Y-22.16 Z3.6
G1 X-43.9 Y-23.93 Z3.64
G1 X-42.91 Y-25.67 Z3.68
G1 X-41.85 Y-27.37 Z3.72
G1 X-40.72 Y-29.02 Z3.76
G1 X-39.53 Y-30.62 Z3.8
G1 X-38.27 Y-32.18 Z3.84
G1 X-36.95 Y-33.68 Z3.88
G1 X-35.57 Y-35.14 Z3.92
G1 X-34.14 Y-36.53 Z3.96
G1 X-32.65 Y-37.87 Z4.0
G1 X-31.11 Y-39.14 Z4.04
G1 X-29.52 Y-40.35 Z4.08
G1 X-27.88 Y-41.5 Z4.12
G1 X-26.2 Y-42.59 Z4.16
G1 X-24.48 Y-43.6 Z4.2
G1 X-22.71 Y-44.54 Z4.24
G1 X-20.91 Y-45.42 Z4.28
G1 X-19.08 Y-46.22 Z4.32
G1 X-17.22 Y-46.94 Z4.36
G1 X-15.32 Y-47.59 Z4.4
G1 X-13.41 Y-48.17 Z4.44
G1 X-11.47 Y-48.67 Z4.48
G1 X-9.52 Y-49.09 Z4.52
G1 X-7.54 Y-49.43 Z4.56
G1 X-5.56 Y-49.69 Z4.6
G1 X-3.57 Y-49.87 Z4.64
G1 X-1.57 Y-49.98 Z4.68
G1 X0.43 Y-50.0 Z4.72
G1 X2.43 Y-49.94 Z4.76
G1 X4.42 Y-49.8 Z4.8
G1 X6.41 Y-49.59 Z4.84
G1 X8.39 Y-49.29 Z4.88
G1 X10.35 Y-48.92 Z4.92
G1 X12.3 Y-48.46 Z4.96
G1 X14.23 Y-47.93 Z5.0
G1 X16.14 Y-47.32 Z5.04
G1 X18.02 Y-46.64 Z5.08
G1 X19.87 Y-45.88 Z5.12
G1 X21.69 Y-45.05 Z5.16
G1 X23.47 Y-44.15 Z5.2
G1 X25.22 Y-43.17 Z5.24
G1 X26.93 Y-42.13 Z5.28
G1 X28.59 Y-41.02 Z5.32
G1 X30.21 Y-39.84 Z5.36
G1 X31.78 Y-38.6 Z5.4
G1 X33.29 Y-37.3 Z5.44
G1 X34.76 Y-35.94 Z5.48
G1 X36.17 Y-34.52 Z5.52
G1 X37.52 Y-33.05 Z5.56
G1 X38.81 Y-31.52 Z5.6
G1 X40.04 Y-29.94 Z5.64
G1 X41.21 Y-28.32 Z5.68
G1 X42.31 Y-26.65 Z5.72
G1 X43.34 Y-24.93 Z5.76
G1 X44.3 Y-23.18 Z5.8
G1 X45.19 Y-21.39 Z5.84
G1 X46.01 Y-19.56 Z5.88
G1 X46.76 Y-17.71 Z5.92
G1 X47.43 Y-15.82 Z5.96
G1 X48.03 Y-13.91 Z6.0
G1 X48.54 Y-11.98 Z6.04
G1 X48.98 Y-10.03 Z6.08
G1 X49.35 Y-8.06 Z6.12
G1 X49.63 Y-6.08 Z6.16
G1 X49.83 Y-4.09 Z6.2
G1 X49.96 Y-2.1 Z6.24
G1 X50.0 Y-0.1 Z6.28
G1 X49.96 Y1.9 Z6.32
G1 X49.85 Y3.9 Z6.36
G1 X49.65 Y5.89 Z6.4
G1 X49.38 Y7.87 Z6.44
G1 X49.02 Y9.84 Z6.48
G1 X48.59 Y11.79 Z6.52
G1 X48.08 Y13.73 Z6.56
G1 X47.49 Y15.64 Z6.6
G1 X46.83 Y17.53 Z6.64
G1 X46.09 Y19.39 Z6.68
G1 X45.28 Y21.21 Z6.72
G1 X44.39 Y23.01 Z6.76
G1 X43.44 Y24.76 Z6.8
G1 X42.41 Y26.48 Z6.84
G1 X41.32 Y28.16 Z6.88
G1 X40.16 Y29.79 Z6.92
G1 X38.93 Y31.37 Z6.96
G1 X37.65 Y32.9 Z7.0
G1 X36.3 Y34.38 Z7.04
G1 X34.9 Y35.81 Z7.08
G1 X33.44 Y37.17 Z7.12
G1 X31.93 Y38.48 Z7.16
G1 X30.36 Y39.73 Z7.2
G1 X28.75 Y40.91 Z7.24
G1 X27.09 Y42.03 Z7.28
G1 X25.39 Y43.08 Z7.32
G1 X23.64 Y44.06 Z7.36
G1 X21.86 Y44.97 Z7.4
G1 X20.04 Y45.81 Z7.44
G1 X18.2 Y46.57 Z7.48
G1 X16.32 Y47.26 Z7.52
G1 X14.42 Y47.88 Z7.56
G1 X12.49 Y48.42 Z7.6
G1 X10.54 Y48.88 Z7.64
G1 X8.58 Y49.26 Z7.68
G1 X6.6 Y49.56 Z7.72
G1 X4.61 Y49.79 Z7.76
G1 X2.62 Y49.93 Z7.8
G1 X0.62 Y50.0 Z7.84
G1 X-1.38 Y49.98 Z7.88
G1 X-3.38 Y49.89 Z7.92
G1 X-5.37 Y49.71 Z7.96
G1 X-7.35 Y49.46 Z8.0
G1 X-9.33 Y49.12 Z8.04
G1 X-11.28 Y48.71 Z8.08
G1 X-13.22 Y48.22 Z8.12
G1 X-15.14 Y47.65 Z8.16
G1 X-17.03 Y47.01 Z8.2
G1 X-18.9 Y46.29 Z8.24
G1 X-20.74 Y45.5 Z8.28
G1 X-22.54 Y44.63 Z8.32
G1 X-24.31 Y43.69 Z8.36
G1 X-26.04 Y42.69 Z8.4
G1 X-27.72 Y41.61 Z8.44
G1 X-29.36 Y40.47 Z8.48
G1 X-30.96 Y39.26 Z8.52
G1 X-32.51 Y37.99 Z8.56
G1 X-34.0 Y36.66 Z8.6
G1 X-35.44 Y35.27 Z8.64
G1 X-36.82 Y33.83 Z8.68
G1 X-38.14 Y32.33 Z8.72
G1 X-39.41 Y30.78 Z8.76
G1 X-40.61 Y29.17 Z8.8
G1 X-41.74 Y27.53 Z8.84
G1 X-42.81 Y25.84 Z8.88
G1 X-43.81 Y24.1 Z8.92
G1 X-44.74 Y22.33 Z8.96
G1 X-45.59 Y20.52 Z9.0
G1 X-46.38 Y18.68 Z9.04
G1 X-47.09 Y16.81 Z9.08
G1 X-47.72 Y14.92 Z9.12
G1 X-48.28 Y13.0 Z9.16
G1 X-48.76 Y11.05 Z9.2
G1 X-49.17 Y9.1 Z9.24
G1 X-49.49 Y7.12 Z9.28
G1 X-49.74 Y5.14 Z9.32
G1 X-49.9 Y3.14 Z9.36
G1 X-49.99 Y1.14 Z9.4
G1 X-49.99 Y-0.86 Z9.44
G1 X-49.92 Y-2.85 Z9.48
G1 X-49.76 Y-4.85 Z9.52
G1 X-49.53 Y-6.84 Z9.56
G1 X-49.22 Y-8.81 Z9.6
G1 X-48.83 Y-10.77 Z9.64
G1 X-48.36 Y-12.72 Z9.68
G1 X-47.81 Y-14.64 Z9.72
G1 X-47.18 Y-16.54 Z9.76
G1 X-46.49 Y-18.42 Z9.8
G1 X-45.71 Y-20.26 Z9.84
G1 X-44.86 Y-22.07 Z9.88
G1 X-43.95 Y-23.85 Z9.92
G1 X-42.96 Y-25.59 Z9.96
G1 X-41.9 Y-27.28 Z10.0
G1 X-40.77 Y-28.94 Z10.04
G1 X-39.58 Y-30.55 Z10.08
G1 X-38.33 Y-32.11 Z10.12
G1 X-37.02 Y-33.61 Z10.16
G1 X-35.64 Y-35.07 Z10.2
G1 X-34.21 Y-36.46 Z10.24
G1 X-32.72 Y-37.8 Z10.28
G1 X-31.19 Y-39.08 Z10.32
G1 X-29.6 Y-40.3 Z10.36
G1 X-27.96 Y-41.45 Z10.4
G1 X-26.28 Y-42.53 Z10.44
G1 X-24.56 Y-43.55 Z10.48
G1 X-22.8 Y-44.5 Z10.52
G1 X-21.0 Y-45.38 Z10.56
G1 X-19.17 Y-46.18 Z10.6
G1 X-17.31 Y-46.91 Z10.64
G1 X-15.42 Y-47.56 Z10.68
G1 X-13.5 Y-48.14 Z10.72
G1 X-11.57 Y-48.64 Z10.76
G1 X-9.61 Y-49.07 Z10.8
G1 X-7.64 Y-49.41 Z10.84
G1 X-5.66 Y-49.68 Z10.88
G1 X-3.67 Y-49.87 Z10.92
G1 X-1.67 Y-49.97 Z10.96
G1 X0.33 Y-50.0 Z11.0
G1 X2.33 Y-49.95 Z11.04
G1 X4.33 Y-49.81 Z11.08
G1 X6.32 Y-49.6 Z11.12
G1 X8.29 Y-49.31 Z11.16
G1 X10.26 Y-48.94 Z11.2
G1 X12.21 Y-48.49 Z11.24
G1 X14.14 Y-47.96 Z11.28
G1 X16.05 Y-47.36 Z11.32
G1 X17.93 Y-46.68 Z11.36
G1 X19.78 Y-45.92 Z11.4
G1 X21.6 Y-45.09 Z11.44
G1 X23.39 Y-44.19 Z11.48
G1 X25.14 Y-43.22 Z11.52
G1 X26.84 Y-42.18 Z11.56
G1 X28.51 Y-41.08 Z11.6
G1 X30.13 Y-39.9 Z11.64
G1 X31.7 Y-38.67 Z11.68
G1 X33.22 Y-37.37 Z11.72
G1 X34.69 Y-36.01 Z11.76
G1 X36.1 Y-34.59 Z11.8
G1 X37.46 Y-33.12 Z11.84
G1 X38.75 Y-31.59 Z11.88
G1 X39.99 Y-30.02 Z11.92
G1 X41.15 Y-28.4 Z11.96
G1 X42.26 Y-26.73 Z12.0
G1 X43.29 Y-25.02 Z12.04
G1 X44.26 Y-23.26 Z12.08
G1 X45.15 Y-21.48 Z12.12
G1 X45.98 Y-19.65 Z12.16
G1 X46.73 Y-17.8 Z12.2
G1 X47.4 Y-15.91 Z12.24
G1 X48.0 Y-14.01 Z12.28
G1 X48.52 Y-12.07 Z12.32
G1 X48.96 Y-10.12 Z12.36
G1 X49.33 Y-8.16 Z12.4
G1 X49.62 Y-6.18 Z12.44
G1 X49.82 Y-4.19 Z12.48
G1 X49.95 Y-2.19 Z12.52
G1 X50.0 Y-0.19 Z12.56
G1 X49.97 Y1.81 Z12.6
G1 X49.86 Y3.8 Z12.64
G1 X49.66 Y5.8 Z12.68
G1 X49.39 Y7.78 Z12.72
G1 X49.04 Y9.75 Z12.76
G1 X48.61 Y11.7 Z12.8
G1 X48.1 Y13.63 Z12.84
G1 X47.52 Y15.55 Z12.88
G1 X46.86 Y17.44 Z12.92
G1 X46.13 Y19.3 Z12.96
G1 X45.32 Y21.13 Z13.0
G1 X44.44 Y22.92 Z13.04
G1 X43.48 Y24.68 Z13.08
G1 X42.46 Y26.4 Z13.12
G1 X41.37 Y28.08 Z13.16
G1 X40.22 Y29.71 Z13.2
G1 X39.0 Y31.29 Z13.24
G1 X37.71 Y32.83 Z13.28
G1 X36.37 Y34.31 Z13.32
G1 X34.97 Y35.74 Z13.36
G1 X33.51 Y37.11 Z13.4
G1 X32.0 Y38.42 Z13.44
G1 X30.44 Y39.67 Z13.48
G1 X28.83 Y40.85 Z13.52
G1 X27.17 Y41.97 Z13.56
G1 X25.47 Y43.03 Z13.6
G1 X23.73 Y44.01 Z13.64
G1 X21.95 Y44.93 Z13.68
G1 X20.13 Y45.77 Z13.72
G1 X18.29 Y46.54 Z13.76
G1 X16.41 Y47.23 Z13.8
G1 X14.51 Y47.85 Z13.84
G1 X12.58 Y48.39 Z13.88
G1 X10.64 Y48.86 Z13.92
G1 X8.67 Y49.24 Z13.96
G1 X6.7 Y49.55 Z14.0
G1 X4.71 Y49.78 Z14.04
G1 X2.72 Y49.93 Z14.08
G1 X0.72 Y49.99 Z14.12
G1 X-1.28 Y49.98 Z14.16
G1 X-3.28 Y49.89 Z14.2
G1 X-5.27 Y49.72 Z14.24
G1 X-7.26 Y49.47 Z14.28
G1 X-9.23 Y49.14 Z14.32
G1 X-11.19 Y48.73 Z14.36
G1 X-13.13 Y48.25 Z14.4
G1 X-15.05 Y47.68 Z14.44
G1 X-16.94 Y47.04 Z14.48
G1 X-18.81 Y46.33 Z14.52
G1 X-20.65 Y45.54 Z14.56
G1 X-22.45 Y44.67 Z14.6
G1 X-24.22 Y43.74 Z14.64
G1 X-25.95 Y42.74 Z14.68
G1 X-27.64 Y41.66 Z14.72
G1 X-29.29 Y40.53 Z14.76
G1 X-30.88 Y39.32 Z14.8
G1 X-32.43 Y38.05 Z14.84
G1 X-33.93 Y36.73 Z14.88
G1 X-35.37 Y35.34 Z14.92
G1 X-36.76 Y33.9 Z14.96
G1 X-38.08 Y32.4 Z15.0
G1 X-39.35 Y30.85 Z15.04
G1 X-40.55 Y29.25 Z15.08
G1 X-41.69 Y27.61 Z15.12
G1 X-42.76 Y25.92 Z15.16
G1 X-43.76 Y24.19 Z15.2
G1 X-44.69 Y22.42 Z15.24
G1 X-45.55 Y20.61 Z15.28
G1 X-46.34 Y18.77 Z15.32
G1 X-47.06 Y16.9 Z15.36
G1 X-47.69 Y15.01 Z15.4
G1 X-48.26 Y13.09 Z15.44
G1 X-48.74 Y11.15 Z15.48
G1 X-49.15 Y9.19 Z15.52
G1 X-49.48 Y7.22 Z15.56
G1 X-49.73 Y5.23 Z15.6
G1 X-49.89 Y3.24 Z15.64
G1 X-49.98 Y1.24 Z15.68
G1 X-49.99 Y-0.76 Z15.72
G1 X-49.92 Y-2.76 Z15.76
G1 X-49.77 Y-4.75 Z15.8
G1 X-49.54 Y-6.74 Z15.84
G1 X-49.23 Y-8.72 Z15.88
G1 X-48.85 Y-10.68 Z15.92
G1 X-48.38 Y-12.62 Z15.96
G1 X-47.84 Y-14.55 Z16.0
G1 X-47.22 Y-16.45 Z16.04
G1 X-46.52 Y-18.33 Z16.08
G1 X-45.75 Y-20.17 Z16.12
G1 X-44.91 Y-21.99 Z16.16
G1 X-43.99 Y-23.76 Z16.2
G1 X-43.01 Y-25.5 Z16.24
G1 X-41.95 Y-27.2 Z16.28
G1 X-40.83 Y-28.86 Z16.32
G1 X-39.64 Y-30.47 Z16.36
G1 X-38.39 Y-32.03 Z16.4
G1 X-37.08 Y-33.54 Z16.44
G1 X-35.71 Y-35.0 Z16.48
G1 X-34.28 Y-36.4 Z16.52
G1 X-32.8 Y-37.74 Z16.56
G1 X-31.26 Y-39.02 Z16.6
G1 X-29.68 Y-40.24 Z16.64
G1 X-28.04 Y-41.4 Z16.68
G1 X-26.36 Y-42.48 Z16.72
G1 X-24.64 Y-43.5 Z16.76
G1 X-22.88 Y-44.46 Z16.8
G1 X-21.09 Y-45.34 Z16.84
G1 X-19.26 Y-46.14 Z16.88
G1 X-17.4 Y-46.88 Z16.92
G1 X-15.51 Y-47.53 Z16.96
G1 X-13.59 Y-48.12 Z17.0
G1 X-11.66 Y-48.62 Z17.04
G1 X-9.71 Y-49.05 Z17.08
G1 X-7.74 Y-49.4 Z17.12
G1 X-5.75 Y-49.67 Z17.16
G1 X-3.76 Y-49.86 Z17.2
G1 X-1.77 Y-49.97 Z17.24
G1 X0.23 Y-50.0 Z17.28
G1 X2.23 Y-49.95 Z17.32
G1 X4.23 Y-49.82 Z17.36
G1 X6.22 Y-49.61 Z17.4
G1 X8.2 Y-49.32 Z17.44
G1 X10.17 Y-48.96 Z17.48
G1 X12.12 Y-48.51 Z17.52
G1 X14.05 Y-47.99 Z17.56
G1 X15.95 Y-47.39 Z17.6
G1 X17.84 Y-46.71 Z17.64
G1 X19.69 Y-45.96 Z17.68
G1 X21.51 Y-45.14 Z17.72
G1 X23.3 Y-44.24 Z17.76
G1 X25.05 Y-43.27 Z17.8
G1 X26.76 Y-42.23 Z17.84
G1 X28.43 Y-41.13 Z17.88
G1 X30.05 Y-39.96 Z17.92
G1 X31.63 Y-38.73 Z17.96
G1 X33.15 Y-37.43 Z18.0
G1 X34.62 Y-36.07 Z18.04
G1 X36.04 Y-34.66 Z18.08
G1 X37.39 Y-33.19 Z18.12
G1 X38.69 Y-31.67 Z18.16
G1 X39.93 Y-30.1 Z18.2
G1 X41.1 Y-28.48 Z18.24
G1 X42.21 Y-26.81 Z18.28
G1 X43.24 Y-25.1 Z18.32
G1 X44.21 Y-23.35 Z18.36
G1 X45.11 Y-21.56 Z18.4
G1 X45.94 Y-19.74 Z18.44
G1 X46.69 Y-17.89 Z18.48
G1 X47.37 Y-16.01 Z18.52
G1 X47.97 Y-14.1 Z18.56
G1 X48.5 Y-12.17 Z18.6
G1 X48.94 Y-10.22 Z18.64
G1 X49.31 Y-8.25 Z18.68
G1 X49.6 Y-6.27 Z18.72
G1 X49.82 Y-4.28 Z18.76
G1 X49.95 Y-2.29 Z18.8
G1 X50.0 Y-0.29 Z18.84
G1 X49.97 Y1.71 Z18.88
G1 X49.86 Y3.71 Z18.92
G1 X49.67 Y5.7 Z18.96
G1 X49.41 Y7.68 Z19.0
G1 X49.06 Y9.65 Z19.04
G1 X48.63 Y11.61 Z19.08
G1 X48.13 Y13.54 Z19.12
G1 X47.55 Y15.46 Z19.16
G1 X46.89 Y17.35 Z19.2
G1 X46.16 Y19.21 Z19.24
G1 X45.36 Y21.04 Z19.28
G1 X44.48 Y22.84 Z19.32
G1 X43.53 Y24.6 Z19.36
G1 X42.51 Y26.32 Z19.4
G1 X41.43 Y28.0 Z19.44
G1 X40.27 Y29.63 Z19.48
G1 X39.06 Y31.22 Z19.52
G1 X37.78 Y32.76 Z19.56
G1 X36.44 Y34.24 Z19.6
G1 X35.04 Y35.67 Z19.64
G1 X33.58 Y37.04 Z19.68
G1 X32.07 Y38.36 Z19.72
G1 X30.51 Y39.61 Z19.76
G1 X28.9 Y40.8 Z19.8
G1 X27.25 Y41.92 Z19.84
G1 X25.55 Y42.98 Z19.88
G1 X23.81 Y43.97 Z19.92
G1 X22.03 Y44.88 Z19.96
G1 X20.22 Y45.73 Z20.0
G1 X18.38 Y46.5 Z20.04
G1 X16.5 Y47.2 Z20.08
G1 X14.6 Y47.82 Z20.12
G1 X12.68 Y48.37 Z20.16
G1 X10.73 Y48.83 Z20.2
G1 X8.77 Y49.22 Z20.24
G1 X6.79 Y49.54 Z20.28
G1 X4.81 Y49.77 Z20.32
G1 X2.81 Y49.92 Z20.36
G1 X0.81 Y49.99 Z20.4
G1 X-1.19 Y49.99 Z20.44
G1 X-3.19 Y49.9 Z20.48
G1 X-5.18 Y49.73 Z20.52
G1 X-7.16 Y49.48 Z20.56
G1 X-9.14 Y49.16 Z20.6
G1 X-11.1 Y48.75 Z20.64
G1 X-13.04 Y48.27 Z20.68
G1 X-14.96 Y47.71 Z20.72
G1 X-16.85 Y47.07 Z20.76
G1 X-18.72 Y46.36 Z20.8
G1 X-20.56 Y45.58 Z20.84
G1 X-22.37 Y44.72 Z20.88
G1 X-24.14 Y43.79 Z20.92
G1 X-25.87 Y42.79 Z20.96
G1 X-27.56 Y41.72 Z21.0
G1 X-29.21 Y40.58 Z21.04
G1 X-30.81 Y39.38 Z21.08
G1 X-32.36 Y38.12 Z21.12
G1 X-33.86 Y36.79 Z21.16
G1 X-35.3 Y35.41 Z21.2
G1 X-36.69 Y33.97 Z21.24
G1 X-38.02 Y32.47 Z21.28
G1 X-39.29 Y30.93 Z21.32
G1 X-40.49 Y29.33 Z21.36
G1 X-41.63 Y27.69 Z21.4
G1 X-42.71 Y26.0 Z21.44
G1 X-43.71 Y24.27 Z21.48
G1 X-44.65 Y22.5 Z21.52
G1 X-45.51 Y20.7 Z21.56
G1 X-46.31 Y18.86 Z21.6
G1 X-47.02 Y17.0 Z21.64
G1 X-47.67 Y15.1 Z21.68
G1 X-48.23 Y13.18 Z21.72
G1 X-48.72 Y11.24 Z21.76
G1 X-49.13 Y9.29 Z21.8
G1 X-49.46 Y7.31 Z21.84
G1 X-49.72 Y5.33 Z21.88
G1 X-49.89 Y3.34 Z21.92
G1 X-49.98 Y1.34 Z21.96
G1 X-50.0 Y-0.66 Z22.0
G1 X-49.93 Y-2.66 Z22.04
G1 X-49.78 Y-4.66 Z22.08
G1 X-49.56 Y-6.64 Z22.12
G1 X-49.25 Y-8.62 Z22.16
G1 X-48.87 Y-10.58 Z22.2
G1 X-48.4 Y-12.53 Z22.24
G1 X-47.86 Y-14.46 Z22.28
G1 X-47.25 Y-16.36 Z22.32
G1 X-46.56 Y-18.24 Z22.36
G1 X-45.79 Y-20.08 Z22.4
G1 X-44.95 Y-21.9 Z22.44
G1 X-44.04 Y-23.68 Z22.48
G1 X-43.06 Y-25.42 Z22.52
G1 X-42.0 Y-27.12 Z22.56
G1 X-40.89 Y-28.78 Z22.6
G1 X-39.7 Y-30.39 Z22.64
G1 X-38.45 Y-31.96 Z22.68
G1 X-37.15 Y-33.47 Z22.72
G1 X-35.78 Y-34.93 Z22.76
G1 X-34.35 Y-36.33 Z22.8
G1 X-32.87 Y-37.68 Z22.84
G1 X-31.34 Y-38.96 Z22.88
G1 X-29.75 Y-40.18 Z22.92
G1 X-28.12 Y-41.34 Z22.96
G1 X-26.45 Y-42.43 Z23.0
G1 X-24.73 Y-43.46 Z23.04
G1 X-22.97 Y-44.41 Z23.08
G1 X-21.18 Y-45.29 Z23.12
G1 X-19.35 Y-46.11 Z23.16
G1 X-17.49 Y-46.84 Z23.2
G1 X-15.6 Y-47.5 Z23.24
G1 X-13.69 Y-48.09 Z23.28
G1 X-11.75 Y-48.6 Z23.32
G1 X-9.8 Y-49.03 Z23.36
G1 X-7.83 Y-49.38 Z23.4
G1 X-5.85 Y-49.66 Z23.44
G1 X-3.86 Y-49.85 Z23.48
G1 X-1.86 Y-49.97 Z23.52
G1 X0.14 Y-50.0 Z23.56
G1 X2.14 Y-49.95 Z23.6
G1 X4.13 Y-49.83 Z23.64
G1 X6.12 Y-49.62 Z23.68
G1 X8.1 Y-49.34 Z23.72
G1 X10.07 Y-48.98 Z23.76
G1 X12.02 Y-48.53 Z23.8
G1 X13.95 Y-48.01 Z23.84
G1 X15.86 Y-47.42 Z23.88
G1 X17.75 Y-46.74 Z23.92
G1 X19.6 Y-46.0 Z23.96
G1 X21.43 Y-45.18 Z24.0
G1 X23.22 Y-44.28 Z24.04
G1 X24.97 Y-43.32 Z24.08
G1 X26.68 Y-42.29 Z24.12
G1 X28.35 Y-41.19 Z24.16
G1 X29.98 Y-40.02 Z24.2
G1 X31.55 Y-38.79 Z24.24
G1 X33.08 Y-37.49 Z24.28
G1 X34.55 Y-36.14 Z24.32
G1 X35.97 Y-34.73 Z24.36
G1 X37.33 Y-33.26 Z24.4
G1 X38.63 Y-31.74 Z24.44
G1 X39.87 Y-30.17 Z24.48
G1 X41.04 Y-28.55 Z24.52
G1 X42.15 Y-26.89 Z24.56
G1 X43.2 Y-25.18 Z24.6
G1 X44.17 Y-23.43 Z24.64
G1 X45.07 Y-21.65 Z24.68
G1 X45.9 Y-19.83 Z24.72
G1 X46.66 Y-17.98 Z24.76
G1 X47.34 Y-16.1 Z24.8
G1 X47.94 Y-14.19 Z24.84
G1 X48.47 Y-12.26 Z24.88
G1 X48.92 Y-10.31 Z24.92
G1 X49.3 Y-8.35 Z24.96
G1 X49.59 Y-6.37 Z25.01
G1 X49.81 Y-4.38 Z25.05
G1 X49.94 Y-2.39 Z25.09
G1 X50.0 Y-0.39 Z25.13
G1 X49.97 Y1.61 Z25.17
G1 X49.87 Y3.61 Z25.21
G1 X49.69 Y5.6 Z25.25
G1 X49.42 Y7.59 Z25.29
G1 X49.08 Y9.56 Z25.33
G1 X48.66 Y11.51 Z25.37
G1 X48.16 Y13.45 Z25.41
G1 X47.58 Y15.36 Z25.45
G1 X46.93 Y17.26 Z25.49
G1 X46.2 Y19.12 Z25.53
G1 X45.4 Y20.95 Z25.57
G1 X44.52 Y22.75 Z25.61
G1 X43.58 Y24.51 Z25.65
G1 X42.56 Y26.24 Z25.69
G1 X41.48 Y27.92 Z25.73
G1 X40.33 Y29.55 Z25.77
G1 X39.12 Y31.14 Z25.81
G1 X37.84 Y32.68 Z25.85
G1 X36.5 Y34.17 Z25.89
G1 X35.11 Y35.6 Z25.93
G1 X33.65 Y36.98 Z25.97
G1 X32.15 Y38.3 Z26.01
G1 X30.59 Y39.55 Z26.05
G1 X28.98 Y40.74 Z26.09
G1 X27.33 Y41.87 Z26.13
G1 X25.63 Y42.93 Z26.17
G1 X23.9 Y43.92 Z26.21
G1 X22.12 Y44.84 Z26.25
G1 X20.31 Y45.69 Z26.29
G1 X18.47 Y46.47 Z26.33
