; G-Code generated by gcode_gen version 1.0
; Home axes...
G28 ;
; Initializing...
;  Applying Z Offset...
G91 ; Relative position...
G1 Z50 ; Add Z Offset to avoid electronics...
; Starting Path...
G90 ; Absolute position...
G1 X200.0 Y150.0 Z50.0
G1 X199.96 Y152.0 Z50.04
G1 X199.84 Y154.0 Z50.08
G1 X199.64 Y155.99 Z50.12
G1 X199.36 Y157.97 Z50.16
G1 X199.0 Y159.94 Z50.2
G1 X198.57 Y161.89 Z50.24
G1 X198.05 Y163.82 Z50.28
G1 X197.46 Y165.73 Z50.32
G1 X196.79 Y167.62 Z50.36
G1 X196.05 Y169.47 Z50.4
G1 X195.24 Y171.3 Z50.44
G1 X194.35 Y173.09 Z50.48
G1 X193.39 Y174.85 Z50.52
G1 X192.36 Y176.56 Z50.56
G1 X191.26 Y178.24 Z50.6
G1 X190.1 Y179.86 Z50.64
G1 X188.87 Y181.44 Z50.68
G1 X187.59 Y182.97 Z50.72
G1 X186.24 Y184.45 Z50.76
G1 X184.83 Y185.87 Z50.8
G1 X183.37 Y187.24 Z50.84
G1 X181.85 Y188.54 Z50.88
G1 X180.28 Y189.79 Z50.92
G1 X178.67 Y190.97 Z50.96
G1 X177.01 Y192.08 Z51.0
G1 X175.3 Y193.13 Z51.04
G1 X173.56 Y194.1 Z51.08
G1 X171.77 Y195.01 Z51.12
G1 X169.96 Y195.84 Z51.16
G1 X168.11 Y196.61 Z51.2
G1 X166.23 Y197.29 Z51.24
G1 X164.32 Y197.9 Z51.28
G1 X162.4 Y198.44 Z51.32
G1 X160.45 Y198.9 Z51.36
G1 X158.48 Y199.27 Z51.4
G1 X156.51 Y199.57 Z51.44
G1 X154.52 Y199.8 Z51.48
G1 X152.52 Y199.94 Z51.52
G1 X150.52 Y200.0 Z51.56
G1 X148.52 Y199.98 Z51.6
G1 X146.53 Y199.88 Z51.64
G1 X144.53 Y199.7 Z51.68
G1 X142.55 Y199.44 Z51.72
G1 X140.58 Y199.1 Z51.76
G1 X138.62 Y198.69 Z51.8
G1 X136.68 Y198.19 Z51.84
G1 X134.77 Y197.62 Z51.88
G1 X132.87 Y196.98 Z51.92
G1 X131.01 Y196.25 Z51.96
G1 X129.17 Y195.46 Z52.0
G1 X127.37 Y194.59 Z52.04
G1 X125.61 Y193.65 Z52.08
G1 X123.88 Y192.64 Z52.12
G1 X122.2 Y191.56 Z52.16
G1 X120.56 Y190.41 Z52.2
G1 X118.96 Y189.2 Z52.24
G1 X117.42 Y187.93 Z52.28
G1 X115.93 Y186.6 Z52.32
G1 X114.49 Y185.2 Z52.36
G1 X113.11 Y183.76 Z52.4
G1 X111.79 Y182.25 Z52.44
G1 X110.53 Y180.7 Z52.48
G1 X109.34 Y179.1 Z52.52
G1 X108.21 Y177.45 Z52.56
G1 X107.14 Y175.75 Z52.6
G1 X106.15 Y174.02 Z52.64
G1 X105.22 Y172.24 Z52.68
G1 X104.37 Y170.44 Z52.72
G1 X103.59 Y168.59 Z52.76
G1 X102.88 Y166.72 Z52.8
G1 X102.25 Y164.82 Z52.84
G1 X101.69 Y162.9 Z52.88
G1 X101.22 Y160.96 Z52.92
G1 X100.82 Y159.0 Z52.96
G1 X100.5 Y157.03 Z53.0
G1 X100.25 Y155.04 Z53.04
G1 X100.09 Y153.05 Z53.08
G1 X100.01 Y151.05 Z53.12
G1 X100.01 Y149.05 Z53.16
G1 X100.09 Y147.05 Z53.2
G1 X100.25 Y145.06 Z53.24
G1 X100.48 Y143.07 Z53.28
G1 X100.8 Y141.09 Z53.32
G1 X101.2 Y139.13 Z53.36
G1 X101.67 Y137.19 Z53.4
G1 X102.22 Y135.27 Z53.44
G1 X102.85 Y133.37 Z53.48
G1 X103.55 Y131.5 Z53.52
G1 X104.33 Y129.65 Z53.56
G1 X105.18 Y127.84 Z53.6
G1 X106.1 Y126.07 Z53.64
G1 X107.09 Y124.33 Z53.68
G1 X108.15 Y122.63 Z53.72
G1 X109.28 Y120.98 Z53.76
G1 X110.47 Y119.38 Z53.8
G1 X111.73 Y117.82 Z53.84
G1 X113.05 Y116.32 Z53.88
G1 X114.43 Y114.86 Z53.92
G1 X115.86 Y113.47 Z53.96
G1 X117.35 Y112.13 Z54.0
G1 X118.89 Y110.86 Z54.04
G1 X120.48 Y109.65 Z54.08
G1 X122.12 Y108.5 Z54.12
G1 X123.8 Y107.41 Z54.16
G1 X125.52 Y106.4 Z54.2
G1 X127.29 Y105.46 Z54.24
G1 X129.09 Y104.58 Z54.28
G1 X130.92 Y103.78 Z54.32
G1 X132.78 Y103.06 Z54.36
G1 X134.68 Y102.41 Z54.4
G1 X136.59 Y101.83 Z54.44
G1 X138.53 Y101.33 Z54.48
G1 X140.48 Y100.91 Z54.52
G1 X142.46 Y100.57 Z54.56
G1 X144.44 Y100.31 Z54.6
G1 X146.43 Y100.13 Z54.64
G1 X148.43 Y100.02 Z54.68
G1 X150.43 Y100.0 Z54.72
G1 X152.43 Y100.06 Z54.76
G1 X154.42 Y100.2 Z54.8
G1 X156.41 Y100.41 Z54.84
G1 X158.39 Y100.71 Z54.88
G1 X160.35 Y101.08 Z54.92
G1 X162.3 Y101.54 Z54.96
G1 X164.23 Y102.07 Z55.0
G1 X166.14 Y102.68 Z55.04
G1 X168.02 Y103.36 Z55.08
G1 X169.87 Y104.12 Z55.12
G1 X171.69 Y104.95 Z55.16
G1 X173.47 Y105.85 Z55.2
G1 X175.22 Y106.83 Z55.24
G1 X176.93 Y107.87 Z55.28
G1 X178.59 Y108.98 Z55.32
G1 X180.21 Y110.16 Z55.36
G1 X181.78 Y111.4 Z55.4
G1 X183.29 Y112.7 Z55.44
G1 X184.76 Y114.06 Z55.48
G1 X186.17 Y115.48 Z55.52
G1 X187.52 Y116.95 Z55.56
G1 X188.81 Y118.48 Z55.6
G1 X190.04 Y120.06 Z55.64
G1 X191.21 Y121.68 Z55.68
G1 X192.31 Y123.35 Z55.72
G1 X193.34 Y125.07 Z55.76
G1 X194.3 Y126.82 Z55.8
G1 X195.19 Y128.61 Z55.84
G1 X196.01 Y130.44 Z55.88
G1 X196.76 Y132.29 Z55.92
G1 X197.43 Y134.18 Z55.96
G1 X198.03 Y136.09 Z56.0
G1 X198.54 Y138.02 Z56.04
G1 X198.98 Y139.97 Z56.08
G1 X199.35 Y141.94 Z56.12
G1 X199.63 Y143.92 Z56.16
G1 X199.83 Y145.91 Z56.2
G1 X199.96 Y147.9 Z56.24
G1 X200.0 Y149.9 Z56.28
G1 X199.96 Y151.9 Z56.32
G1 X199.85 Y153.9 Z56.36
G1 X199.65 Y155.89 Z56.4
G1 X199.38 Y157.87 Z56.44
G1 X199.02 Y159.84 Z56.48
G1 X198.59 Y161.79 Z56.52
G1 X198.08 Y163.73 Z56.56
G1 X197.49 Y165.64 Z56.6
G1 X196.83 Y167.53 Z56.64
G1 X196.09 Y169.39 Z56.68
G1 X195.28 Y171.21 Z56.72
G1 X194.39 Y173.01 Z56.76
G1 X193.44 Y174.76 Z56.8
G1 X192.41 Y176.48 Z56.84
G1 X191.32 Y178.16 Z56.88
G1 X190.16 Y179.79 Z56.92
G1 X188.93 Y181.37 Z56.96
G1 X187.65 Y182.9 Z57.0
G1 X186.3 Y184.38 Z57.04
G1 X184.9 Y185.81 Z57.08
G1 X183.44 Y187.17 Z57.12
G1 X181.93 Y188.48 Z57.16
G1 X180.36 Y189.73 Z57.2
G1 X178.75 Y190.91 Z57.24
G1 X177.09 Y192.03 Z57.28
G1 X175.39 Y193.08 Z57.32
G1 X173.64 Y194.06 Z57.36
G1 X171.86 Y194.97 Z57.4
G1 X170.04 Y195.81 Z57.44
G1 X168.2 Y196.57 Z57.48
G1 X166.32 Y197.26 Z57.52
G1 X164.42 Y197.88 Z57.56
G1 X162.49 Y198.42 Z57.6
G1 X160.54 Y198.88 Z57.64
G1 X158.58 Y199.26 Z57.68
G1 X156.6 Y199.56 Z57.72
G1 X154.61 Y199.79 Z57.76
G1 X152.62 Y199.93 Z57.8
G1 X150.62 Y200.0 Z57.84
G1 X148.62 Y199.98 Z57.88
G1 X146.62 Y199.89 Z57.92
G1 X144.63 Y199.71 Z57.96
G1 X142.65 Y199.46 Z58.0
G1 X140.67 Y199.12 Z58.04
G1 X138.72 Y198.71 Z58.08
G1 X136.78 Y198.22 Z58.12
G1 X134.86 Y197.65 Z58.16
G1 X132.97 Y197.01 Z58.2
G1 X131.1 Y196.29 Z58.24
G1 X129.26 Y195.5 Z58.28
G1 X127.46 Y194.63 Z58.32
G1 X125.69 Y193.69 Z58.36
G1 X123.96 Y192.69 Z58.4
G1 X122.28 Y191.61 Z58.44
G1 X120.64 Y190.47 Z58.48
G1 X119.04 Y189.26 Z58.52
G1 X117.49 Y187.99 Z58.56
G1 X116.0 Y186.66 Z58.6
G1 X114.56 Y185.27 Z58.64
G1 X113.18 Y183.83 Z58.68
G1 X111.86 Y182.33 Z58.72
G1 X110.59 Y180.78 Z58.76
G1 X109.39 Y179.17 Z58.8
G1 X108.26 Y177.53 Z58.84
G1 X107.19 Y175.84 Z58.88
G1 X106.19 Y174.1 Z58.92
G1 X105.26 Y172.33 Z58.96
G1 X104.41 Y170.52 Z59.0
G1 X103.62 Y168.68 Z59.04
G1 X102.91 Y166.81 Z59.08
G1 X102.28 Y164.92 Z59.12
G1 X101.72 Y163.0 Z59.16
G1 X101.24 Y161.05 Z59.2
G1 X100.83 Y159.1 Z59.24
G1 X100.51 Y157.12 Z59.28
G1 X100.26 Y155.14 Z59.32
G1 X100.1 Y153.14 Z59.36
G1 X100.01 Y151.14 Z59.4
G1 X100.01 Y149.14 Z59.44
G1 X100.08 Y147.15 Z59.48
G1 X100.24 Y145.15 Z59.52
G1 X100.47 Y143.16 Z59.56
G1 X100.78 Y141.19 Z59.6
G1 X101.17 Y139.23 Z59.64
G1 X101.64 Y137.28 Z59.68
G1 X102.19 Y135.36 Z59.72
G1 X102.82 Y133.46 Z59.76
G1 X103.51 Y131.58 Z59.8
G1 X104.29 Y129.74 Z59.84
G1 X105.14 Y127.93 Z59.88
G1 X106.05 Y126.15 Z59.92
G1 X107.04 Y124.41 Z59.96
G1 X108.1 Y122.72 Z60.0
G1 X109.23 Y121.06 Z60.04
G1 X110.42 Y119.45 Z60.08
G1 X111.67 Y117.89 Z60.12
G1 X112.98 Y116.39 Z60.16
G1 X114.36 Y114.93 Z60.2
G1 X115.79 Y113.54 Z60.24
G1 X117.28 Y112.2 Z60.28
G1 X118.81 Y110.92 Z60.32
G1 X120.4 Y109.7 Z60.36
G1 X122.04 Y108.55 Z60.4
G1 X123.72 Y107.47 Z60.44
G1 X125.44 Y106.45 Z60.48
G1 X127.2 Y105.5 Z60.52
G1 X129.0 Y104.62 Z60.56
G1 X130.83 Y103.82 Z60.6
G1 X132.69 Y103.09 Z60.64
G1 X134.58 Y102.44 Z60.68
G1 X136.5 Y101.86 Z60.72
G1 X138.43 Y101.36 Z60.76
G1 X140.39 Y100.93 Z60.8
G1 X142.36 Y100.59 Z60.84
G1 X144.34 Y100.32 Z60.88
G1 X146.33 Y100.13 Z60.92
G1 X148.33 Y100.03 Z60.96
G1 X150.33 Y100.0 Z61.0
G1 X152.33 Y100.05 Z61.04
G1 X154.33 Y100.19 Z61.08
G1 X156.32 Y100.4 Z61.12
G1 X158.29 Y100.69 Z61.16
G1 X160.26 Y101.06 Z61.2
G1 X162.21 Y101.51 Z61.24
G1 X164.14 Y102.04 Z61.28
G1 X166.05 Y102.64 Z61.32
G1 X167.93 Y103.32 Z61.36
G1 X169.78 Y104.08 Z61.4
G1 X171.6 Y104.91 Z61.44
G1 X173.39 Y105.81 Z61.48
G1 X175.14 Y106.78 Z61.52
G1 X176.84 Y107.82 Z61.56
G1 X178.51 Y108.92 Z61.6
G1 X180.13 Y110.1 Z61.64
G1 X181.7 Y111.33 Z61.68
G1 X183.22 Y112.63 Z61.72
G1 X184.69 Y113.99 Z61.76
G1 X186.1 Y115.41 Z61.8
G1 X187.46 Y116.88 Z61.84
G1 X188.75 Y118.41 Z61.88
G1 X189.99 Y119.98 Z61.92
G1 X191.15 Y121.6 Z61.96
G1 X192.26 Y123.27 Z62.0
G1 X193.29 Y124.98 Z62.04
G1 X194.26 Y126.74 Z62.08
G1 X195.15 Y128.52 Z62.12
G1 X195.98 Y130.35 Z62.16
G1 X196.73 Y132.2 Z62.2
G1 X197.4 Y134.09 Z62.24
G1 X198.0 Y135.99 Z62.28
G1 X198.52 Y137.93 Z62.32
G1 X198.96 Y139.88 Z62.36
G1 X199.33 Y141.84 Z62.4
G1 X199.62 Y143.82 Z62.44
G1 X199.82 Y145.81 Z62.48
G1 X199.95 Y147.81 Z62.52
G1 X200.0 Y149.81 Z62.56
G1 X199.97 Y151.81 Z62.6
G1 X199.86 Y153.8 Z62.64
G1 X199.66 Y155.8 Z62.68
G1 X199.39 Y157.78 Z62.72
G1 X199.04 Y159.75 Z62.76
G1 X198.61 Y161.7 Z62.8
G1 X198.1 Y163.63 Z62.84
G1 X197.52 Y165.55 Z62.88
G1 X196.86 Y167.44 Z62.92
G1 X196.13 Y169.3 Z62.96
G1 X195.32 Y171.13 Z63.0
G1 X194.44 Y172.92 Z63.04
G1 X193.48 Y174.68 Z63.08
G1 X192.46 Y176.4 Z63.12
G1 X191.37 Y178.08 Z63.16
G1 X190.22 Y179.71 Z63.2
G1 X189.0 Y181.29 Z63.24
G1 X187.71 Y182.83 Z63.28
G1 X186.37 Y184.31 Z63.32
G1 X184.97 Y185.74 Z63.36
G1 X183.51 Y187.11 Z63.4
G1 X182.0 Y188.42 Z63.44
G1 X180.44 Y189.67 Z63.48
G1 X178.83 Y190.85 Z63.52
G1 X177.17 Y191.97 Z63.56
G1 X175.47 Y193.03 Z63.6
G1 X173.73 Y194.01 Z63.64
G1 X171.95 Y194.93 Z63.68
G1 X170.13 Y195.77 Z63.72
G1 X168.29 Y196.54 Z63.76
G1 X166.41 Y197.23 Z63.8
G1 X164.51 Y197.85 Z63.84
G1 X162.58 Y198.39 Z63.88
G1 X160.64 Y198.86 Z63.92
G1 X158.67 Y199.24 Z63.96
G1 X156.7 Y199.55 Z64.0
G1 X154.71 Y199.78 Z64.04
G1 X152.72 Y199.93 Z64.08
G1 X150.72 Y199.99 Z64.12
G1 X148.72 Y199.98 Z64.16
G1 X146.72 Y199.89 Z64.2
G1 X144.73 Y199.72 Z64.24
G1 X142.74 Y199.47 Z64.28
G1 X140.77 Y199.14 Z64.32
G1 X138.81 Y198.73 Z64.36
G1 X136.87 Y198.25 Z64.4
G1 X134.95 Y197.68 Z64.44
G1 X133.06 Y197.04 Z64.48
G1 X131.19 Y196.33 Z64.52
G1 X129.35 Y195.54 Z64.56
G1 X127.55 Y194.67 Z64.6
G1 X125.78 Y193.74 Z64.64
G1 X124.05 Y192.74 Z64.68
G1 X122.36 Y191.66 Z64.72
G1 X120.71 Y190.53 Z64.76
G1 X119.12 Y189.32 Z64.8
G1 X117.57 Y188.05 Z64.84
G1 X116.07 Y186.73 Z64.88
G1 X114.63 Y185.34 Z64.92
G1 X113.24 Y183.9 Z64.96
G1 X111.92 Y182.4 Z65.0
G1 X110.65 Y180.85 Z65.04
G1 X109.45 Y179.25 Z65.08
G1 X108.31 Y177.61 Z65.12
G1 X107.24 Y175.92 Z65.16
G1 X106.24 Y174.19 Z65.2
G1 X105.31 Y172.42 Z65.24
G1 X104.45 Y170.61 Z65.28
G1 X103.66 Y168.77 Z65.32
G1 X102.94 Y166.9 Z65.36
G1 X102.31 Y165.01 Z65.4
G1 X101.74 Y163.09 Z65.44
G1 X101.26 Y161.15 Z65.48
G1 X100.85 Y159.19 Z65.52
G1 X100.52 Y157.22 Z65.56
G1 X100.27 Y155.23 Z65.6
G1 X100.11 Y153.24 Z65.64
G1 X100.02 Y151.24 Z65.68
G1 X100.01 Y149.24 Z65.72
G1 X100.08 Y147.24 Z65.76
G1 X100.23 Y145.25 Z65.8
G1 X100.46 Y143.26 Z65.84
G1 X100.77 Y141.28 Z65.88
G1 X101.15 Y139.32 Z65.92
G1 X101.62 Y137.38 Z65.96
G1 X102.16 Y135.45 Z66.0
G1 X102.78 Y133.55 Z66.04
G1 X103.48 Y131.67 Z66.08
G1 X104.25 Y129.83 Z66.12
G1 X105.09 Y128.01 Z66.16
G1 X106.01 Y126.24 Z66.2
G1 X106.99 Y124.5 Z66.24
G1 X108.05 Y122.8 Z66.28
G1 X109.17 Y121.14 Z66.32
G1 X110.36 Y119.53 Z66.36
G1 X111.61 Y117.97 Z66.4
G1 X112.92 Y116.46 Z66.44
G1 X114.29 Y115.0 Z66.48
G1 X115.72 Y113.6 Z66.52
G1 X117.2 Y112.26 Z66.56
G1 X118.74 Y110.98 Z66.6
G1 X120.32 Y109.76 Z66.64
G1 X121.96 Y108.6 Z66.68
G1 X123.64 Y107.52 Z66.72
G1 X125.36 Y106.5 Z66.76
G1 X127.12 Y105.54 Z66.8
G1 X128.91 Y104.66 Z66.84
G1 X130.74 Y103.86 Z66.88
G1 X132.6 Y103.12 Z66.92
G1 X134.49 Y102.47 Z66.96
G1 X136.41 Y101.88 Z67.0
G1 X138.34 Y101.38 Z67.04
G1 X140.29 Y100.95 Z67.08
G1 X142.26 Y100.6 Z67.12
G1 X144.25 Y100.33 Z67.16
G1 X146.24 Y100.14 Z67.2
G1 X148.23 Y100.03 Z67.24
G1 X150.23 Y100.0 Z67.28
G1 X152.23 Y100.05 Z67.32
G1 X154.23 Y100.18 Z67.36
G1 X156.22 Y100.39 Z67.4
G1 X158.2 Y100.68 Z67.44
G1 X160.17 Y101.04 Z67.48
G1 X162.12 Y101.49 Z67.52
G1 X164.05 Y102.01 Z67.56
G1 X165.95 Y102.61 Z67.6
G1 X167.84 Y103.29 Z67.64
G1 X169.69 Y104.04 Z67.68
G1 X171.51 Y104.86 Z67.72
G1 X173.3 Y105.76 Z67.76
G1 X175.05 Y106.73 Z67.8
G1 X176.76 Y107.77 Z67.84
G1 X178.43 Y108.87 Z67.88
G1 X180.05 Y110.04 Z67.92
G1 X181.63 Y111.27 Z67.96
G1 X183.15 Y112.57 Z68.0
G1 X184.62 Y113.93 Z68.04
G1 X186.04 Y115.34 Z68.08
G1 X187.39 Y116.81 Z68.12
G1 X188.69 Y118.33 Z68.16
G1 X189.93 Y119.9 Z68.2
G1 X191.1 Y121.52 Z68.24
G1 X192.21 Y123.19 Z68.28
G1 X193.24 Y124.9 Z68.32
G1 X194.21 Y126.65 Z68.36
G1 X195.11 Y128.44 Z68.4
G1 X195.94 Y130.26 Z68.44
G1 X196.69 Y132.11 Z68.48
G1 X197.37 Y133.99 Z68.52
G1 X197.97 Y135.9 Z68.56
G1 X198.5 Y137.83 Z68.6
G1 X198.94 Y139.78 Z68.64
G1 X199.31 Y141.75 Z68.68
G1 X199.6 Y143.73 Z68.72
G1 X199.82 Y145.72 Z68.76
G1 X199.95 Y147.71 Z68.8
G1 X200.0 Y149.71 Z68.84
G1 X199.97 Y151.71 Z68.88
G1 X199.86 Y153.71 Z68.92
G1 X199.67 Y155.7 Z68.96
G1 X199.41 Y157.68 Z69.0
G1 X199.06 Y159.65 Z69.04
G1 X198.63 Y161.61 Z69.08
G1 X198.13 Y163.54 Z69.12
G1 X197.55 Y165.46 Z69.16
G1 X196.89 Y167.35 Z69.2
G1 X196.16 Y169.21 Z69.24
G1 X195.36 Y171.04 Z69.28
G1 X194.48 Y172.84 Z69.32
G1 X193.53 Y174.6 Z69.36
G1 X192.51 Y176.32 Z69.4
G1 X191.43 Y178.0 Z69.44
G1 X190.27 Y179.63 Z69.48
G1 X189.06 Y181.22 Z69.52
G1 X187.78 Y182.76 Z69.56
G1 X186.44 Y184.24 Z69.6
G1 X185.04 Y185.67 Z69.64
G1 X183.58 Y187.04 Z69.68
G1 X182.07 Y188.36 Z69.72
G1 X180.51 Y189.61 Z69.76
G1 X178.9 Y190.8 Z69.8
G1 X177.25 Y191.92 Z69.84
G1 X175.55 Y192.98 Z69.88
G1 X173.81 Y193.97 Z69.92
G1 X172.03 Y194.88 Z69.96
G1 X170.22 Y195.73 Z70.0
G1 X168.38 Y196.5 Z70.04
G1 X166.5 Y197.2 Z70.08
G1 X164.6 Y197.82 Z70.12
G1 X162.68 Y198.37 Z70.16
G1 X160.73 Y198.83 Z70.2
G1 X158.77 Y199.22 Z70.24
G1 X156.79 Y199.54 Z70.28
G1 X154.81 Y199.77 Z70.32
G1 X152.81 Y199.92 Z70.36
G1 X150.81 Y199.99 Z70.4
G1 X148.81 Y199.99 Z70.44
G1 X146.81 Y199.9 Z70.48
G1 X144.82 Y199.73 Z70.52
G1 X142.84 Y199.48 Z70.56
G1 X140.86 Y199.16 Z70.6
G1 X138.9 Y198.75 Z70.64
G1 X136.96 Y198.27 Z70.68
G1 X135.04 Y197.71 Z70.72
G1 X133.15 Y197.07 Z70.76
G1 X131.28 Y196.36 Z70.8
G1 X129.44 Y195.58 Z70.84
G1 X127.63 Y194.72 Z70.88
G1 X125.86 Y193.79 Z70.92
G1 X124.13 Y192.79 Z70.96
G1 X122.44 Y191.72 Z71.0
G1 X120.79 Y190.58 Z71.04
G1 X119.19 Y189.38 Z71.08
G1 X117.64 Y188.12 Z71.12
G1 X116.14 Y186.79 Z71.16
G1 X114.7 Y185.41 Z71.2
G1 X113.31 Y183.97 Z71.24
G1 X111.98 Y182.47 Z71.28
G1 X110.71 Y180.93 Z71.32
G1 X109.51 Y179.33 Z71.36
G1 X108.37 Y177.69 Z71.4
G1 X107.29 Y176.0 Z71.44
G1 X106.29 Y174.27 Z71.48
G1 X105.35 Y172.5 Z71.52
G1 X104.49 Y170.7 Z71.56
G1 X103.69 Y168.86 Z71.6
G1 X102.98 Y167.0 Z71.64
G1 X102.33 Y165.1 Z71.68
G1 X101.77 Y163.18 Z71.72
G1 X101.28 Y161.24 Z71.76
G1 X100.87 Y159.29 Z71.8
G1 X100.54 Y157.31 Z71.84
G1 X100.28 Y155.33 Z71.88
G1 X100.11 Y153.34 Z71.92
G1 X100.02 Y151.34 Z71.96
G1 X100.0 Y149.34 Z72.0
G1 X100.07 Y147.34 Z72.04
G1 X100.22 Y145.34 Z72.08
G1 X100.44 Y143.36 Z72.12
G1 X100.75 Y141.38 Z72.16
G1 X101.13 Y139.42 Z72.2
G1 X101.6 Y137.47 Z72.24
G1 X102.14 Y135.54 Z72.28
G1 X102.75 Y133.64 Z72.32
G1 X103.44 Y131.76 Z72.36
G1 X104.21 Y129.92 Z72.4
G1 X105.05 Y128.1 Z72.44
G1 X105.96 Y126.32 Z72.48
G1 X106.94 Y124.58 Z72.52
G1 X108.0 Y122.88 Z72.56
G1 X109.11 Y121.22 Z72.6
G1 X110.3 Y119.61 Z72.64
G1 X111.55 Y118.04 Z72.68
G1 X112.85 Y116.53 Z72.72
G1 X114.22 Y115.07 Z72.76
G1 X115.65 Y113.67 Z72.8
G1 X117.13 Y112.32 Z72.84
G1 X118.66 Y111.04 Z72.88
G1 X120.25 Y109.82 Z72.92
G1 X121.88 Y108.66 Z72.96
G1 X123.55 Y107.57 Z73.0
G1 X125.27 Y106.54 Z73.04
G1 X127.03 Y105.59 Z73.08
G1 X128.82 Y104.71 Z73.12
G1 X130.65 Y103.89 Z73.16
G1 X132.51 Y103.16 Z73.2
G1 X134.4 Y102.5 Z73.24
G1 X136.31 Y101.91 Z73.28
G1 X138.25 Y101.4 Z73.32
G1 X140.2 Y100.97 Z73.36
G1 X142.17 Y100.62 Z73.4
G1 X144.15 Y100.34 Z73.44
G1 X146.14 Y100.15 Z73.48
G1 X148.14 Y100.03 Z73.52
G1 X150.14 Y100.0 Z73.56
G1 X152.14 Y100.05 Z73.6
G1 X154.13 Y100.17 Z73.64
G1 X156.12 Y100.38 Z73.68
G1 X158.1 Y100.66 Z73.72
G1 X160.07 Y101.02 Z73.76
G1 X162.02 Y101.47 Z73.8
G1 X163.95 Y101.99 Z73.84
G1 X165.86 Y102.58 Z73.88
G1 X167.75 Y103.26 Z73.92
G1 X169.6 Y104.0 Z73.96
G1 X171.43 Y104.82 Z74.0
G1 X173.22 Y105.72 Z74.04
G1 X174.97 Y106.68 Z74.08
G1 X176.68 Y107.71 Z74.12
G1 X178.35 Y108.81 Z74.16
G1 X179.98 Y109.98 Z74.2
G1 X181.55 Y111.21 Z74.24
G1 X183.08 Y112.51 Z74.28
G1 X184.55 Y113.86 Z74.32
G1 X185.97 Y115.27 Z74.36
G1 X187.33 Y116.74 Z74.4
G1 X188.63 Y118.26 Z74.44
G1 X189.87 Y119.83 Z74.48
G1 X191.04 Y121.45 Z74.52
G1 X192.15 Y123.11 Z74.56
G1 X193.2 Y124.82 Z74.6
