; G-Code generated by gcode_gen version 1.0
; Home axes...
G28 ;
; Initializing...
;  Applying Z Offset...
G91 ; Relative position...
G1 Z50 ; Add Z Offset to avoid electronics...
; Starting Path...
G90 ; Absolute position...
G1 X332.51 Y229.36 Z351.55 F3600 
G1 X227.43 Y301.77 Z238.82 F3600 
G1 X362.08 Y263.58 Z255.2 F3600 
G1 X319.86 Y302.54 Z230.63 F3600 
G1 X252.58 Y343.17 Z191.03 F3600 
G1 X317.05 Y267.18 Z310.68 F3600 
G1 X358.52 Y271.24 Z314.16 F3600 
G1 X319.03 Y343.16 Z231.22 F3600 
G1 X326.78 Y237.03 Z351.43 F3600 
G1 X352.51 Y256.17 Z344.26 F3600 
G1 X374.86 Y313.15 Z280.42 F3600 
G1 X296.37 Y331.91 Z266.65 F3600 
G1 X290.22 Y274.94 Z219.91 F3600 
G1 X229.9 Y307.83 Z334.65 F3600 
G1 X276.27 Y358.75 Z207.74 F3600 
G1 X263.1 Y302.28 Z207.73 F3600 
G1 X324.34 Y347.56 Z190.85 F3600 
G1 X227.88 Y256.68 Z313.72 F3600 
G1 X317.81 Y337.9 Z365.28 F3600 
G1 X247.73 Y332.05 Z307.61 F3600 
