; G-Code generated by gcode_gen version 1.0
; Home axes...
G28 ;
; Initializing...
;  Applying Z Offset...
G91 ; Relative position...
G1 Z50 ; Add Z Offset to avoid electronics...
; Starting Path...
G90 ; Absolute position...
G1 X122.45 Y111.8 Z149.47 F3600 
M18 
G4 P10000 
M17 
G1 X101.11 Y91.5 Z196.5 F3600 
M18 
G4 P10000 
M17 
G1 X133.43 Y116.9 Z175.57 F3600 
M18 
G4 P10000 
M17 
G1 X90.76 Y93.01 Z165.86 F3600 
M18 
G4 P10000 
M17 
G1 X81.21 Y94.32 Z119.84 F3600 
M18 
G4 P10000 
M17 
G1 X135.39 Y87.08 Z166.41 F3600 
M18 
G4 P10000 
M17 
G1 X93.16 Y93.88 Z181.18 F3600 
M18 
G4 P10000 
M17 
G1 X127.89 Y107.91 Z136.94 F3600 
M18 
G4 P10000 
M17 
G1 X79.21 Y122.28 Z136.81 F3600 
M18 
G4 P10000 
M17 
G1 X144.69 Y90.77 Z169.68 F3600 
M18 
G4 P10000 
M17 
G1 X137.56 Y147.9 Z116.12 F3600 
M18 
G4 P10000 
M17 
G1 X111.06 Y93.57 Z166.25 F3600 
M18 
G4 P10000 
M17 
G1 X75.39 Y84.96 Z164.92 F3600 
M18 
G4 P10000 
M17 
G1 X86.45 Y139.32 Z197.29 F3600 
M18 
G4 P10000 
M17 
G1 X139.41 Y119.86 Z128.21 F3600 
M18 
G4 P10000 
M17 
G1 X121.69 Y96.55 Z162.18 F3600 
M18 
G4 P10000 
M17 
G1 X114.68 Y80.52 Z118.57 F3600 
M18 
G4 P10000 
M17 
G1 X82.6 Y90.75 Z176.97 F3600 
M18 
G4 P10000 
M17 
G1 X130.4 Y102.22 Z103.17 F3600 
M18 
G4 P10000 
M17 
G1 X82.44 Y77.21 Z102.27 F3600 
M18 
G4 P10000 
M17 
