; G-Code generated by gcode_gen version 1.0
; Home axes...
G28 ;
; Initializing...
;  Applying Z Offset...
G91 ; Relative position...
G1 Z50 ; Add Z Offset to avoid electronics...
; Starting Path...
G90 ; Absolute position...
G1 X77.96 Y87.8 Z101.74 F3600 
M18 
G4 P10000 
M17 
G1 X130.32 Y134.33 Z99.35 F3600 
M18 
G4 P10000 
M17 
G1 X100.04 Y144.85 Z119.64 F3600 
M18 
G4 P10000 
M17 
G1 X90.12 Y95.6 Z132.43 F3600 
M18 
G4 P10000 
M17 
G1 X100.33 Y131.6 Z145.17 F3600 
M18 
G4 P10000 
M17 
G1 X103.5 Y104.06 Z84.96 F3600 
M18 
G4 P10000 
M17 
G1 X110.73 Y75.66 Z123.66 F3600 
M18 
G4 P10000 
M17 
G1 X122.59 Y130.08 Z124.38 F3600 
M18 
G4 P10000 
M17 
G1 X137.96 Y144.03 Z86.17 F3600 
M18 
G4 P10000 
M17 
G1 X118.81 Y138.33 Z101.02 F3600 
M18 
G4 P10000 
M17 
G1 X137.17 Y115.78 Z117.95 F3600 
M18 
G4 P10000 
M17 
G1 X108.12 Y146.73 Z91.25 F3600 
M18 
G4 P10000 
M17 
G1 X124.93 Y86.7 Z79.18 F3600 
M18 
G4 P10000 
M17 
G1 X145.16 Y103.97 Z120.78 F3600 
M18 
G4 P10000 
M17 
G1 X86.68 Y85.09 Z97.39 F3600 
M18 
G4 P10000 
M17 
G1 X122.45 Y89.97 Z133.0 F3600 
M18 
G4 P10000 
M17 
G1 X116.93 Y95.63 Z129.11 F3600 
M18 
G4 P10000 
M17 
G1 X137.47 Y130.9 Z109.59 F3600 
M18 
G4 P10000 
M17 
G1 X78.25 Y85.94 Z135.93 F3600 
M18 
G4 P10000 
M17 
G1 X83.76 Y129.44 Z107.47 F3600 
M18 
G4 P10000 
M17 
