; G-Code generated by gcode_gen version 1.0
; Home axes...
G28 ;
; Initializing...
;  Applying Z Offset...
G91 ; Relative position...
G1 Z50 ; Add Z Offset to avoid electronics...
; Starting Path...
G90 ; Absolute position...
G1 X79.76 Y123.58 Z114.12 F3600 
G4 P2500 
G1 X133.6 Y107.41 Z172.71 F3600 
G4 P2500 
G1 X146.18 Y135.47 Z159.28 F3600 
G4 P2500 
G1 X95.2 Y115.86 Z114.2 F3600 
G4 P2500 
G1 X83.99 Y106.24 Z132.69 F3600 
G4 P2500 
G1 X121.78 Y103.18 Z129.81 F3600 
G4 P2500 
G1 X126.64 Y83.19 Z102.7 F3600 
G4 P2500 
G1 X87.01 Y107.99 Z139.24 F3600 
G4 P2500 
G1 X86.81 Y83.06 Z185.89 F3600 
G4 P2500 
G1 X143.79 Y149.03 Z191.66 F3600 
G4 P2500 
G1 X128.47 Y111.22 Z191.92 F3600 
G4 P2500 
G1 X89.37 Y122.72 Z191.87 F3600 
G4 P2500 
G1 X120.97 Y86.32 Z150.62 F3600 
G4 P2500 
G1 X139.84 Y108.36 Z101.91 F3600 
G4 P2500 
G1 X105.82 Y107.36 Z181.88 F3600 
G4 P2500 
G1 X129.88 Y123.81 Z113.31 F3600 
G4 P2500 
G1 X76.6 Y98.99 Z116.61 F3600 
G4 P2500 
G1 X78.76 Y148.91 Z129.16 F3600 
G4 P2500 
G1 X138.39 Y128.28 Z106.09 F3600 
G4 P2500 
G1 X75.82 Y140.59 Z175.08 F3600 
G4 P2500 
