; G-Code generated by gcode_gen version 1.0
; Home axes...
G28 ;
; Initializing...
; Moving to center...
G90 ; Absolute position...
G1 X150 Y150 Z150 F3600 
; Starting Path...
G91 ; Relative position...
G1 X-11.05 Y24.79 Z-10.34 F3600 
M18 
G4 P5000 
M17 
G1 X0.86 Y-1.33 Z-4.46 F3600 
M18 
G4 P5000 
M17 
G1 X28.73 Y31.18 Z4.66 F3600 
M18 
G4 P5000 
M17 
G1 X-35.04 Y-26.89 Z-29.71 F3600 
M18 
G4 P5000 
M17 
G1 X-6.35 Y16.56 Z1.67 F3600 
M18 
G4 P5000 
M17 
G1 X-10.37 Y32.66 Z12.92 F3600 
M18 
G4 P5000 
M17 
G1 X-42.15 Y32.26 Z4.47 F3600 
M18 
G4 P5000 
M17 
G1 X5.92 Y-8.53 Z28.04 F3600 
M18 
G4 P5000 
M17 
G1 X24.53 Y26.86 Z31.58 F3600 
M18 
G4 P5000 
M17 
G1 X-20.74 Y20.45 Z1.79 F3600 
M18 
G4 P5000 
M17 
G1 X32.84 Y-21.88 Z-23.25 F3600 
M18 
G4 P5000 
M17 
G1 X-31.95 Y16.29 Z18.67 F3600 
M18 
G4 P5000 
M17 
G1 X5.6 Y-25.17 Z18.54 F3600 
M18 
G4 P5000 
M17 
G1 X-28.83 Y-39.51 Z16.77 F3600 
M18 
G4 P5000 
M17 
G1 X25.59 Y-9.13 Z4.23 F3600 
M18 
G4 P5000 
M17 
G1 X21.07 Y-16.05 Z24.53 F3600 
M18 
G4 P5000 
M17 
G1 X-4.32 Y12.01 Z14.34 F3600 
M18 
G4 P5000 
M17 
G1 X-10.86 Y15.41 Z-21.77 F3600 
M18 
G4 P5000 
M17 
G1 X12.65 Y-5.87 Z-18.64 F3600 
M18 
G4 P5000 
M17 
G1 X36.44 Y4.86 Z-24.52 F3600 
M18 
G4 P5000 
M17 
