; G-Code generated by gcode_gen version 1.0
; Home axes...
G28 ;
; Initializing...
;  Applying Z Offset...
G91 ; Relative position...
G1 Z50 ; Add Z Offset to avoid electronics...
; Starting Path...
G90 ; Absolute position...
G1 X128.34 Y78.3 Z101.91 F3600 
G1 X138.33 Y156.01 Z187.81 F3600 
G1 X75.8 Y148.45 Z116.65 F3600 
G1 X156.41 Y206.08 Z240.96 F3600 
G1 X127.02 Y207.86 Z158.58 F3600 
G1 X166.37 Y179.02 Z123.92 F3600 
G1 X130.31 Y117.58 Z180.8 F3600 
G1 X156.28 Y196.97 Z129.42 F3600 
G1 X108.16 Y124.73 Z264.43 F3600 
G1 X162.1 Y177.48 Z277.15 F3600 
G1 X92.74 Y123.42 Z200.46 F3600 
G1 X144.07 Y161.06 Z270.08 F3600 
G1 X116.4 Y209.48 Z284.42 F3600 
G1 X172.32 Y134.64 Z286.51 F3600 
G1 X107.2 Y190.32 Z194.99 F3600 
G1 X141.69 Y171.34 Z273.33 F3600 
G1 X158.35 Y122.09 Z188.33 F3600 
G1 X134.21 Y221.37 Z205.55 F3600 
G1 X123.74 Y184.69 Z205.18 F3600 
G1 X173.39 Y204.95 Z259.82 F3600 
