; G-Code generated by gcode_gen version 1.0
; Home axes...
G28 ;
; Initializing...
;  Applying Z Offset...
G91 ; Relative position...
G1 Z75 ; Add Z Offset to avoid electronics...
; Starting Path...
G90 ; Absolute position...
G1 X200.0 Y150.0 Z75.0 F1200 
G1 X199.96 Y152.0 Z75.04 F1200 
G1 X199.84 Y154.0 Z75.08 F1200 
G1 X199.64 Y155.99 Z75.12 F1200 
G1 X199.36 Y157.97 Z75.16 F1200 
G1 X199.0 Y159.94 Z75.2 F1200 
G1 X198.57 Y161.89 Z75.24 F1200 
G1 X198.05 Y163.82 Z75.28 F1200 
G1 X197.46 Y165.73 Z75.32 F1200 
G1 X196.79 Y167.62 Z75.36 F1200 
G1 X196.05 Y169.47 Z75.4 F1200 
G1 X195.24 Y171.3 Z75.44 F1200 
G1 X194.35 Y173.09 Z75.48 F1200 
G1 X193.39 Y174.85 Z75.52 F1200 
G1 X192.36 Y176.56 Z75.56 F1200 
G1 X191.26 Y178.24 Z75.6 F1200 
G1 X190.1 Y179.86 Z75.64 F1200 
G1 X188.87 Y181.44 Z75.68 F1200 
G1 X187.59 Y182.97 Z75.72 F1200 
G1 X186.24 Y184.45 Z75.76 F1200 
G1 X184.83 Y185.87 Z75.8 F1200 
G1 X183.37 Y187.24 Z75.84 F1200 
G1 X181.85 Y188.54 Z75.88 F1200 
G1 X180.28 Y189.79 Z75.92 F1200 
G1 X178.67 Y190.97 Z75.96 F1200 
G1 X177.01 Y192.08 Z76.0 F1200 
G1 X175.3 Y193.13 Z76.04 F1200 
G1 X173.56 Y194.1 Z76.08 F1200 
G1 X171.77 Y195.01 Z76.12 F1200 
G1 X169.96 Y195.84 Z76.16 F1200 
G1 X168.11 Y196.61 Z76.2 F1200 
G1 X166.23 Y197.29 Z76.24 F1200 
G1 X164.32 Y197.9 Z76.28 F1200 
G1 X162.4 Y198.44 Z76.32 F1200 
G1 X160.45 Y198.9 Z76.36 F1200 
G1 X158.48 Y199.27 Z76.4 F1200 
G1 X156.51 Y199.57 Z76.44 F1200 
G1 X154.52 Y199.8 Z76.48 F1200 
G1 X152.52 Y199.94 Z76.52 F1200 
G1 X150.52 Y200.0 Z76.56 F1200 
G1 X148.52 Y199.98 Z76.6 F1200 
G1 X146.53 Y199.88 Z76.64 F1200 
G1 X144.53 Y199.7 Z76.68 F1200 
G1 X142.55 Y199.44 Z76.72 F1200 
G1 X140.58 Y199.1 Z76.76 F1200 
G1 X138.62 Y198.69 Z76.8 F1200 
G1 X136.68 Y198.19 Z76.84 F1200 
G1 X134.77 Y197.62 Z76.88 F1200 
G1 X132.87 Y196.98 Z76.92 F1200 
G1 X131.01 Y196.25 Z76.96 F1200 
G1 X129.17 Y195.46 Z77.0 F1200 
G1 X127.37 Y194.59 Z77.04 F1200 
G1 X125.61 Y193.65 Z77.08 F1200 
G1 X123.88 Y192.64 Z77.12 F1200 
G1 X122.2 Y191.56 Z77.16 F1200 
G1 X120.56 Y190.41 Z77.2 F1200 
G1 X118.96 Y189.2 Z77.24 F1200 
G1 X117.42 Y187.93 Z77.28 F1200 
G1 X115.93 Y186.6 Z77.32 F1200 
G1 X114.49 Y185.2 Z77.36 F1200 
G1 X113.11 Y183.76 Z77.4 F1200 
G1 X111.79 Y182.25 Z77.44 F1200 
G1 X110.53 Y180.7 Z77.48 F1200 
G1 X109.34 Y179.1 Z77.52 F1200 
G1 X108.21 Y177.45 Z77.56 F1200 
G1 X107.14 Y175.75 Z77.6 F1200 
G1 X106.15 Y174.02 Z77.64 F1200 
G1 X105.22 Y172.24 Z77.68 F1200 
G1 X104.37 Y170.44 Z77.72 F1200 
G1 X103.59 Y168.59 Z77.76 F1200 
G1 X102.88 Y166.72 Z77.8 F1200 
G1 X102.25 Y164.82 Z77.84 F1200 
G1 X101.69 Y162.9 Z77.88 F1200 
G1 X101.22 Y160.96 Z77.92 F1200 
G1 X100.82 Y159.0 Z77.96 F1200 
G1 X100.5 Y157.03 Z78.0 F1200 
G1 X100.25 Y155.04 Z78.04 F1200 
G1 X100.09 Y153.05 Z78.08 F1200 
G1 X100.01 Y151.05 Z78.12 F1200 
G1 X100.01 Y149.05 Z78.16 F1200 
G1 X100.09 Y147.05 Z78.2 F1200 
G1 X100.25 Y145.06 Z78.24 F1200 
G1 X100.48 Y143.07 Z78.28 F1200 
G1 X100.8 Y141.09 Z78.32 F1200 
G1 X101.2 Y139.13 Z78.36 F1200 
G1 X101.67 Y137.19 Z78.4 F1200 
G1 X102.22 Y135.27 Z78.44 F1200 
G1 X102.85 Y133.37 Z78.48 F1200 
G1 X103.55 Y131.5 Z78.52 F1200 
G1 X104.33 Y129.65 Z78.56 F1200 
G1 X105.18 Y127.84 Z78.6 F1200 
G1 X106.1 Y126.07 Z78.64 F1200 
G1 X107.09 Y124.33 Z78.68 F1200 
G1 X108.15 Y122.63 Z78.72 F1200 
G1 X109.28 Y120.98 Z78.76 F1200 
G1 X110.47 Y119.38 Z78.8 F1200 
G1 X111.73 Y117.82 Z78.84 F1200 
G1 X113.05 Y116.32 Z78.88 F1200 
G1 X114.43 Y114.86 Z78.92 F1200 
G1 X115.86 Y113.47 Z78.96 F1200 
G1 X117.35 Y112.13 Z79.0 F1200 
G1 X118.89 Y110.86 Z79.04 F1200 
G1 X120.48 Y109.65 Z79.08 F1200 
G1 X122.12 Y108.5 Z79.12 F1200 
G1 X123.8 Y107.41 Z79.16 F1200 
G1 X125.52 Y106.4 Z79.2 F1200 
G1 X127.29 Y105.46 Z79.24 F1200 
G1 X129.09 Y104.58 Z79.28 F1200 
G1 X130.92 Y103.78 Z79.32 F1200 
G1 X132.78 Y103.06 Z79.36 F1200 
G1 X134.68 Y102.41 Z79.4 F1200 
G1 X136.59 Y101.83 Z79.44 F1200 
G1 X138.53 Y101.33 Z79.48 F1200 
G1 X140.48 Y100.91 Z79.52 F1200 
G1 X142.46 Y100.57 Z79.56 F1200 
G1 X144.44 Y100.31 Z79.6 F1200 
G1 X146.43 Y100.13 Z79.64 F1200 
G1 X148.43 Y100.02 Z79.68 F1200 
G1 X150.43 Y100.0 Z79.72 F1200 
G1 X152.43 Y100.06 Z79.76 F1200 
G1 X154.42 Y100.2 Z79.8 F1200 
G1 X156.41 Y100.41 Z79.84 F1200 
G1 X158.39 Y100.71 Z79.88 F1200 
G1 X160.35 Y101.08 Z79.92 F1200 
G1 X162.3 Y101.54 Z79.96 F1200 
G1 X164.23 Y102.07 Z80.0 F1200 
G1 X166.14 Y102.68 Z80.04 F1200 
G1 X168.02 Y103.36 Z80.08 F1200 
G1 X169.87 Y104.12 Z80.12 F1200 
G1 X171.69 Y104.95 Z80.16 F1200 
G1 X173.47 Y105.85 Z80.2 F1200 
G1 X175.22 Y106.83 Z80.24 F1200 
G1 X176.93 Y107.87 Z80.28 F1200 
G1 X178.59 Y108.98 Z80.32 F1200 
G1 X180.21 Y110.16 Z80.36 F1200 
G1 X181.78 Y111.4 Z80.4 F1200 
G1 X183.29 Y112.7 Z80.44 F1200 
G1 X184.76 Y114.06 Z80.48 F1200 
G1 X186.17 Y115.48 Z80.52 F1200 
G1 X187.52 Y116.95 Z80.56 F1200 
G1 X188.81 Y118.48 Z80.6 F1200 
G1 X190.04 Y120.06 Z80.64 F1200 
G1 X191.21 Y121.68 Z80.68 F1200 
G1 X192.31 Y123.35 Z80.72 F1200 
G1 X193.34 Y125.07 Z80.76 F1200 
G1 X194.3 Y126.82 Z80.8 F1200 
G1 X195.19 Y128.61 Z80.84 F1200 
G1 X196.01 Y130.44 Z80.88 F1200 
G1 X196.76 Y132.29 Z80.92 F1200 
G1 X197.43 Y134.18 Z80.96 F1200 
G1 X198.03 Y136.09 Z81.0 F1200 
G1 X198.54 Y138.02 Z81.04 F1200 
G1 X198.98 Y139.97 Z81.08 F1200 
G1 X199.35 Y141.94 Z81.12 F1200 
G1 X199.63 Y143.92 Z81.16 F1200 
G1 X199.83 Y145.91 Z81.2 F1200 
G1 X199.96 Y147.9 Z81.24 F1200 
G1 X200.0 Y149.9 Z81.28 F1200 
G1 X199.96 Y151.9 Z81.32 F1200 
G1 X199.85 Y153.9 Z81.36 F1200 
G1 X199.65 Y155.89 Z81.4 F1200 
G1 X199.38 Y157.87 Z81.44 F1200 
G1 X199.02 Y159.84 Z81.48 F1200 
G1 X198.59 Y161.79 Z81.52 F1200 
G1 X198.08 Y163.73 Z81.56 F1200 
G1 X197.49 Y165.64 Z81.6 F1200 
G1 X196.83 Y167.53 Z81.64 F1200 
G1 X196.09 Y169.39 Z81.68 F1200 
G1 X195.28 Y171.21 Z81.72 F1200 
G1 X194.39 Y173.01 Z81.76 F1200 
G1 X193.44 Y174.76 Z81.8 F1200 
G1 X192.41 Y176.48 Z81.84 F1200 
G1 X191.32 Y178.16 Z81.88 F1200 
G1 X190.16 Y179.79 Z81.92 F1200 
G1 X188.93 Y181.37 Z81.96 F1200 
G1 X187.65 Y182.9 Z82.0 F1200 
G1 X186.3 Y184.38 Z82.04 F1200 
G1 X184.9 Y185.81 Z82.08 F1200 
G1 X183.44 Y187.17 Z82.12 F1200 
G1 X181.93 Y188.48 Z82.16 F1200 
G1 X180.36 Y189.73 Z82.2 F1200 
G1 X178.75 Y190.91 Z82.24 F1200 
G1 X177.09 Y192.03 Z82.28 F1200 
G1 X175.39 Y193.08 Z82.32 F1200 
G1 X173.64 Y194.06 Z82.36 F1200 
G1 X171.86 Y194.97 Z82.4 F1200 
G1 X170.04 Y195.81 Z82.44 F1200 
G1 X168.2 Y196.57 Z82.48 F1200 
G1 X166.32 Y197.26 Z82.52 F1200 
G1 X164.42 Y197.88 Z82.56 F1200 
G1 X162.49 Y198.42 Z82.6 F1200 
G1 X160.54 Y198.88 Z82.64 F1200 
G1 X158.58 Y199.26 Z82.68 F1200 
G1 X156.6 Y199.56 Z82.72 F1200 
G1 X154.61 Y199.79 Z82.76 F1200 
G1 X152.62 Y199.93 Z82.8 F1200 
G1 X150.62 Y200.0 Z82.84 F1200 
G1 X148.62 Y199.98 Z82.88 F1200 
G1 X146.62 Y199.89 Z82.92 F1200 
G1 X144.63 Y199.71 Z82.96 F1200 
G1 X142.65 Y199.46 Z83.0 F1200 
G1 X140.67 Y199.12 Z83.04 F1200 
G1 X138.72 Y198.71 Z83.08 F1200 
G1 X136.78 Y198.22 Z83.12 F1200 
G1 X134.86 Y197.65 Z83.16 F1200 
G1 X132.97 Y197.01 Z83.2 F1200 
G1 X131.1 Y196.29 Z83.24 F1200 
G1 X129.26 Y195.5 Z83.28 F1200 
G1 X127.46 Y194.63 Z83.32 F1200 
G1 X125.69 Y193.69 Z83.36 F1200 
G1 X123.96 Y192.69 Z83.4 F1200 
G1 X122.28 Y191.61 Z83.44 F1200 
G1 X120.64 Y190.47 Z83.48 F1200 
G1 X119.04 Y189.26 Z83.52 F1200 
G1 X117.49 Y187.99 Z83.56 F1200 
G1 X116.0 Y186.66 Z83.6 F1200 
G1 X114.56 Y185.27 Z83.64 F1200 
G1 X113.18 Y183.83 Z83.68 F1200 
G1 X111.86 Y182.33 Z83.72 F1200 
G1 X110.59 Y180.78 Z83.76 F1200 
G1 X109.39 Y179.17 Z83.8 F1200 
G1 X108.26 Y177.53 Z83.84 F1200 
G1 X107.19 Y175.84 Z83.88 F1200 
G1 X106.19 Y174.1 Z83.92 F1200 
G1 X105.26 Y172.33 Z83.96 F1200 
G1 X104.41 Y170.52 Z84.0 F1200 
G1 X103.62 Y168.68 Z84.04 F1200 
G1 X102.91 Y166.81 Z84.08 F1200 
G1 X102.28 Y164.92 Z84.12 F1200 
G1 X101.72 Y163.0 Z84.16 F1200 
G1 X101.24 Y161.05 Z84.2 F1200 
G1 X100.83 Y159.1 Z84.24 F1200 
G1 X100.51 Y157.12 Z84.28 F1200 
G1 X100.26 Y155.14 Z84.32 F1200 
G1 X100.1 Y153.14 Z84.36 F1200 
G1 X100.01 Y151.14 Z84.4 F1200 
G1 X100.01 Y149.14 Z84.44 F1200 
G1 X100.08 Y147.15 Z84.48 F1200 
G1 X100.24 Y145.15 Z84.52 F1200 
G1 X100.47 Y143.16 Z84.56 F1200 
G1 X100.78 Y141.19 Z84.6 F1200 
G1 X101.17 Y139.23 Z84.64 F1200 
G1 X101.64 Y137.28 Z84.68 F1200 
G1 X102.19 Y135.36 Z84.72 F1200 
G1 X102.82 Y133.46 Z84.76 F1200 
G1 X103.51 Y131.58 Z84.8 F1200 
G1 X104.29 Y129.74 Z84.84 F1200 
G1 X105.14 Y127.93 Z84.88 F1200 
G1 X106.05 Y126.15 Z84.92 F1200 
G1 X107.04 Y124.41 Z84.96 F1200 
G1 X108.1 Y122.72 Z85.0 F1200 
G1 X109.23 Y121.06 Z85.04 F1200 
G1 X110.42 Y119.45 Z85.08 F1200 
G1 X111.67 Y117.89 Z85.12 F1200 
G1 X112.98 Y116.39 Z85.16 F1200 
G1 X114.36 Y114.93 Z85.2 F1200 
G1 X115.79 Y113.54 Z85.24 F1200 
G1 X117.28 Y112.2 Z85.28 F1200 
G1 X118.81 Y110.92 Z85.32 F1200 
G1 X120.4 Y109.7 Z85.36 F1200 
G1 X122.04 Y108.55 Z85.4 F1200 
G1 X123.72 Y107.47 Z85.44 F1200 
G1 X125.44 Y106.45 Z85.48 F1200 
G1 X127.2 Y105.5 Z85.52 F1200 
G1 X129.0 Y104.62 Z85.56 F1200 
G1 X130.83 Y103.82 Z85.6 F1200 
G1 X132.69 Y103.09 Z85.64 F1200 
G1 X134.58 Y102.44 Z85.68 F1200 
G1 X136.5 Y101.86 Z85.72 F1200 
G1 X138.43 Y101.36 Z85.76 F1200 
G1 X140.39 Y100.93 Z85.8 F1200 
G1 X142.36 Y100.59 Z85.84 F1200 
G1 X144.34 Y100.32 Z85.88 F1200 
G1 X146.33 Y100.13 Z85.92 F1200 
G1 X148.33 Y100.03 Z85.96 F1200 
G1 X150.33 Y100.0 Z86.0 F1200 
G1 X152.33 Y100.05 Z86.04 F1200 
G1 X154.33 Y100.19 Z86.08 F1200 
G1 X156.32 Y100.4 Z86.12 F1200 
G1 X158.29 Y100.69 Z86.16 F1200 
G1 X160.26 Y101.06 Z86.2 F1200 
G1 X162.21 Y101.51 Z86.24 F1200 
G1 X164.14 Y102.04 Z86.28 F1200 
G1 X166.05 Y102.64 Z86.32 F1200 
G1 X167.93 Y103.32 Z86.36 F1200 
G1 X169.78 Y104.08 Z86.4 F1200 
G1 X171.6 Y104.91 Z86.44 F1200 
G1 X173.39 Y105.81 Z86.48 F1200 
G1 X175.14 Y106.78 Z86.52 F1200 
G1 X176.84 Y107.82 Z86.56 F1200 
G1 X178.51 Y108.92 Z86.6 F1200 
G1 X180.13 Y110.1 Z86.64 F1200 
G1 X181.7 Y111.33 Z86.68 F1200 
G1 X183.22 Y112.63 Z86.72 F1200 
G1 X184.69 Y113.99 Z86.76 F1200 
G1 X186.1 Y115.41 Z86.8 F1200 
G1 X187.46 Y116.88 Z86.84 F1200 
G1 X188.75 Y118.41 Z86.88 F1200 
G1 X189.99 Y119.98 Z86.92 F1200 
G1 X191.15 Y121.6 Z86.96 F1200 
G1 X192.26 Y123.27 Z87.0 F1200 
G1 X193.29 Y124.98 Z87.04 F1200 
G1 X194.26 Y126.74 Z87.08 F1200 
G1 X195.15 Y128.52 Z87.12 F1200 
G1 X195.98 Y130.35 Z87.16 F1200 
G1 X196.73 Y132.2 Z87.2 F1200 
G1 X197.4 Y134.09 Z87.24 F1200 
G1 X198.0 Y135.99 Z87.28 F1200 
G1 X198.52 Y137.93 Z87.32 F1200 
G1 X198.96 Y139.88 Z87.36 F1200 
G1 X199.33 Y141.84 Z87.4 F1200 
G1 X199.62 Y143.82 Z87.44 F1200 
G1 X199.82 Y145.81 Z87.48 F1200 
G1 X199.95 Y147.81 Z87.52 F1200 
G1 X200.0 Y149.81 Z87.56 F1200 
G1 X199.97 Y151.81 Z87.6 F1200 
G1 X199.86 Y153.8 Z87.64 F1200 
G1 X199.66 Y155.8 Z87.68 F1200 
G1 X199.39 Y157.78 Z87.72 F1200 
G1 X199.04 Y159.75 Z87.76 F1200 
G1 X198.61 Y161.7 Z87.8 F1200 
G1 X198.1 Y163.63 Z87.84 F1200 
G1 X197.52 Y165.55 Z87.88 F1200 
G1 X196.86 Y167.44 Z87.92 F1200 
G1 X196.13 Y169.3 Z87.96 F1200 
G1 X195.32 Y171.13 Z88.0 F1200 
G1 X194.44 Y172.92 Z88.04 F1200 
G1 X193.48 Y174.68 Z88.08 F1200 
G1 X192.46 Y176.4 Z88.12 F1200 
G1 X191.37 Y178.08 Z88.16 F1200 
G1 X190.22 Y179.71 Z88.2 F1200 
G1 X189.0 Y181.29 Z88.24 F1200 
G1 X187.71 Y182.83 Z88.28 F1200 
G1 X186.37 Y184.31 Z88.32 F1200 
G1 X184.97 Y185.74 Z88.36 F1200 
G1 X183.51 Y187.11 Z88.4 F1200 
G1 X182.0 Y188.42 Z88.44 F1200 
G1 X180.44 Y189.67 Z88.48 F1200 
G1 X178.83 Y190.85 Z88.52 F1200 
G1 X177.17 Y191.97 Z88.56 F1200 
G1 X175.47 Y193.03 Z88.6 F1200 
G1 X173.73 Y194.01 Z88.64 F1200 
G1 X171.95 Y194.93 Z88.68 F1200 
G1 X170.13 Y195.77 Z88.72 F1200 
G1 X168.29 Y196.54 Z88.76 F1200 
G1 X166.41 Y197.23 Z88.8 F1200 
G1 X164.51 Y197.85 Z88.84 F1200 
G1 X162.58 Y198.39 Z88.88 F1200 
G1 X160.64 Y198.86 Z88.92 F1200 
G1 X158.67 Y199.24 Z88.96 F1200 
G1 X156.7 Y199.55 Z89.0 F1200 
G1 X154.71 Y199.78 Z89.04 F1200 
G1 X152.72 Y199.93 Z89.08 F1200 
G1 X150.72 Y199.99 Z89.12 F1200 
G1 X148.72 Y199.98 Z89.16 F1200 
G1 X146.72 Y199.89 Z89.2 F1200 
G1 X144.73 Y199.72 Z89.24 F1200 
G1 X142.74 Y199.47 Z89.28 F1200 
G1 X140.77 Y199.14 Z89.32 F1200 
G1 X138.81 Y198.73 Z89.36 F1200 
G1 X136.87 Y198.25 Z89.4 F1200 
G1 X134.95 Y197.68 Z89.44 F1200 
G1 X133.06 Y197.04 Z89.48 F1200 
G1 X131.19 Y196.33 Z89.52 F1200 
G1 X129.35 Y195.54 Z89.56 F1200 
G1 X127.55 Y194.67 Z89.6 F1200 
G1 X125.78 Y193.74 Z89.64 F1200 
G1 X124.05 Y192.74 Z89.68 F1200 
G1 X122.36 Y191.66 Z89.72 F1200 
G1 X120.71 Y190.53 Z89.76 F1200 
G1 X119.12 Y189.32 Z89.8 F1200 
G1 X117.57 Y188.05 Z89.84 F1200 
G1 X116.07 Y186.73 Z89.88 F1200 
G1 X114.63 Y185.34 Z89.92 F1200 
G1 X113.24 Y183.9 Z89.96 F1200 
G1 X111.92 Y182.4 Z90.0 F1200 
G1 X110.65 Y180.85 Z90.04 F1200 
G1 X109.45 Y179.25 Z90.08 F1200 
G1 X108.31 Y177.61 Z90.12 F1200 
G1 X107.24 Y175.92 Z90.16 F1200 
G1 X106.24 Y174.19 Z90.2 F1200 
G1 X105.31 Y172.42 Z90.24 F1200 
G1 X104.45 Y170.61 Z90.28 F1200 
G1 X103.66 Y168.77 Z90.32 F1200 
G1 X102.94 Y166.9 Z90.36 F1200 
G1 X102.31 Y165.01 Z90.4 F1200 
G1 X101.74 Y163.09 Z90.44 F1200 
G1 X101.26 Y161.15 Z90.48 F1200 
G1 X100.85 Y159.19 Z90.52 F1200 
G1 X100.52 Y157.22 Z90.56 F1200 
G1 X100.27 Y155.23 Z90.6 F1200 
G1 X100.11 Y153.24 Z90.64 F1200 
G1 X100.02 Y151.24 Z90.68 F1200 
G1 X100.01 Y149.24 Z90.72 F1200 
G1 X100.08 Y147.24 Z90.76 F1200 
G1 X100.23 Y145.25 Z90.8 F1200 
G1 X100.46 Y143.26 Z90.84 F1200 
G1 X100.77 Y141.28 Z90.88 F1200 
G1 X101.15 Y139.32 Z90.92 F1200 
G1 X101.62 Y137.38 Z90.96 F1200 
G1 X102.16 Y135.45 Z91.0 F1200 
G1 X102.78 Y133.55 Z91.04 F1200 
G1 X103.48 Y131.67 Z91.08 F1200 
G1 X104.25 Y129.83 Z91.12 F1200 
G1 X105.09 Y128.01 Z91.16 F1200 
G1 X106.01 Y126.24 Z91.2 F1200 
G1 X106.99 Y124.5 Z91.24 F1200 
G1 X108.05 Y122.8 Z91.28 F1200 
G1 X109.17 Y121.14 Z91.32 F1200 
G1 X110.36 Y119.53 Z91.36 F1200 
G1 X111.61 Y117.97 Z91.4 F1200 
G1 X112.92 Y116.46 Z91.44 F1200 
G1 X114.29 Y115.0 Z91.48 F1200 
G1 X115.72 Y113.6 Z91.52 F1200 
G1 X117.2 Y112.26 Z91.56 F1200 
G1 X118.74 Y110.98 Z91.6 F1200 
G1 X120.32 Y109.76 Z91.64 F1200 
G1 X121.96 Y108.6 Z91.68 F1200 
G1 X123.64 Y107.52 Z91.72 F1200 
G1 X125.36 Y106.5 Z91.76 F1200 
G1 X127.12 Y105.54 Z91.8 F1200 
G1 X128.91 Y104.66 Z91.84 F1200 
G1 X130.74 Y103.86 Z91.88 F1200 
G1 X132.6 Y103.12 Z91.92 F1200 
G1 X134.49 Y102.47 Z91.96 F1200 
G1 X136.41 Y101.88 Z92.0 F1200 
G1 X138.34 Y101.38 Z92.04 F1200 
G1 X140.29 Y100.95 Z92.08 F1200 
G1 X142.26 Y100.6 Z92.12 F1200 
G1 X144.25 Y100.33 Z92.16 F1200 
G1 X146.24 Y100.14 Z92.2 F1200 
G1 X148.23 Y100.03 Z92.24 F1200 
G1 X150.23 Y100.0 Z92.28 F1200 
G1 X152.23 Y100.05 Z92.32 F1200 
G1 X154.23 Y100.18 Z92.36 F1200 
G1 X156.22 Y100.39 Z92.4 F1200 
G1 X158.2 Y100.68 Z92.44 F1200 
G1 X160.17 Y101.04 Z92.48 F1200 
G1 X162.12 Y101.49 Z92.52 F1200 
G1 X164.05 Y102.01 Z92.56 F1200 
G1 X165.95 Y102.61 Z92.6 F1200 
G1 X167.84 Y103.29 Z92.64 F1200 
G1 X169.69 Y104.04 Z92.68 F1200 
G1 X171.51 Y104.86 Z92.72 F1200 
G1 X173.3 Y105.76 Z92.76 F1200 
G1 X175.05 Y106.73 Z92.8 F1200 
G1 X176.76 Y107.77 Z92.84 F1200 
G1 X178.43 Y108.87 Z92.88 F1200 
G1 X180.05 Y110.04 Z92.92 F1200 
G1 X181.63 Y111.27 Z92.96 F1200 
G1 X183.15 Y112.57 Z93.0 F1200 
G1 X184.62 Y113.93 Z93.04 F1200 
G1 X186.04 Y115.34 Z93.08 F1200 
G1 X187.39 Y116.81 Z93.12 F1200 
G1 X188.69 Y118.33 Z93.16 F1200 
G1 X189.93 Y119.9 Z93.2 F1200 
G1 X191.1 Y121.52 Z93.24 F1200 
G1 X192.21 Y123.19 Z93.28 F1200 
G1 X193.24 Y124.9 Z93.32 F1200 
G1 X194.21 Y126.65 Z93.36 F1200 
G1 X195.11 Y128.44 Z93.4 F1200 
G1 X195.94 Y130.26 Z93.44 F1200 
G1 X196.69 Y132.11 Z93.48 F1200 
G1 X197.37 Y133.99 Z93.52 F1200 
G1 X197.97 Y135.9 Z93.56 F1200 
G1 X198.5 Y137.83 Z93.6 F1200 
G1 X198.94 Y139.78 Z93.64 F1200 
G1 X199.31 Y141.75 Z93.68 F1200 
G1 X199.6 Y143.73 Z93.72 F1200 
G1 X199.82 Y145.72 Z93.76 F1200 
G1 X199.95 Y147.71 Z93.8 F1200 
G1 X200.0 Y149.71 Z93.84 F1200 
G1 X199.97 Y151.71 Z93.88 F1200 
G1 X199.86 Y153.71 Z93.92 F1200 
G1 X199.67 Y155.7 Z93.96 F1200 
G1 X199.41 Y157.68 Z94.0 F1200 
G1 X199.06 Y159.65 Z94.04 F1200 
G1 X198.63 Y161.61 Z94.08 F1200 
G1 X198.13 Y163.54 Z94.12 F1200 
G1 X197.55 Y165.46 Z94.16 F1200 
G1 X196.89 Y167.35 Z94.2 F1200 
G1 X196.16 Y169.21 Z94.24 F1200 
G1 X195.36 Y171.04 Z94.28 F1200 
G1 X194.48 Y172.84 Z94.32 F1200 
